backend/lut_exports/100eb8139f6a4cff8d905d2cc6f1e828.cube
TITLE "PresetForge Generated LUT"
LUT_3D_SIZE 33
DOMAIN_MIN 0.0 0.0 0.0
DOMAIN_MAX 1.0 1.0 1.0
0.000000 0.000000 0.000000
0.022181 0.000000 0.000000
0.044363 0.000000 0.000000
0.066544 0.000000 0.000000
0.088725 0.000000 0.000000
0.110907 0.000000 0.000000
0.133088 0.000000 0.000000
0.155270 0.000000 0.000000
0.177451 0.000000 0.000000
0.199632 0.000000 0.000000
0.221814 0.000000 0.000000
0.243995 0.000000 0.000000
0.266176 0.000000 0.000000
0.288358 0.000000 0.000000
0.310539 0.000000 0.000000
0.332721 0.000000 0.000000
0.354902 0.000000 0.000000
0.377083 0.000000 0.000000
0.399265 0.000000 0.000000
0.421446 0.000000 0.000000
0.443627 0.000000 0.000000
0.465809 0.000000 0.000000
0.487990 0.000000 0.000000
0.510172 0.000000 0.000000
0.532353 0.000000 0.000000
0.554534 0.000000 0.000000
0.576716 0.000000 0.000000
0.598897 0.000000 0.000000
0.621078 0.000000 0.000000
0.643260 0.000000 0.000000
0.665441 0.000000 0.000000
0.687623 0.000000 0.000000
0.709804 0.000000 0.000000
0.000000 0.023039 0.000000
0.022181 0.023039 0.000000
0.044363 0.023039 0.000000
0.066544 0.023039 0.000000
0.088725 0.023039 0.000000
0.110907 0.023039 0.000000
0.133088 0.023039 0.000000
0.155270 0.023039 0.000000
0.177451 0.023039 0.000000
0.199632 0.023039 0.000000
0.221814 0.023039 0.000000
0.243995 0.023039 0.000000
0.266176 0.023039 0.000000
0.288358 0.023039 0.000000
0.310539 0.023039 0.000000
0.332721 0.023039 0.000000
0.354902 0.023039 0.000000
0.377083 0.023039 0.000000
0.399265 0.023039 0.000000
0.421446 0.023039 0.000000
0.443627 0.023039 0.000000
0.465809 0.023039 0.000000
0.487990 0.023039 0.000000
0.510172 0.023039 0.000000
0.532353 0.023039 0.000000
0.554534 0.023039 0.000000
0.576716 0.023039 0.000000
0.598897 0.023039 0.000000
0.621078 0.023039 0.000000
0.643260 0.023039 0.000000
0.665441 0.023039 0.000000
0.687623 0.023039 0.000000
0.709804 0.023039 0.000000
0.000000 0.046078 0.000000
0.022181 0.046078 0.000000
0.044363 0.046078 0.000000
0.066544 0.046078 0.000000
0.088725 0.046078 0.000000
0.110907 0.046078 0.000000
0.133088 0.046078 0.000000
0.155270 0.046078 0.000000
0.177451 0.046078 0.000000
0.199632 0.046078 0.000000
0.221814 0.046078 0.000000
0.243995 0.046078 0.000000
0.266176 0.046078 0.000000
0.288358 0.046078 0.000000
0.310539 0.046078 0.000000
0.332721 0.046078 0.000000
0.354902 0.046078 0.000000
0.377083 0.046078 0.000000
0.399265 0.046078 0.000000
0.421446 0.046078 0.000000
0.443627 0.046078 0.000000
0.465809 0.046078 0.000000
0.487990 0.046078 0.000000
0.510172 0.046078 0.000000
0.532353 0.046078 0.000000
0.554534 0.046078 0.000000
0.576716 0.046078 0.000000
0.598897 0.046078 0.000000
0.621078 0.046078 0.000000
0.643260 0.046078 0.000000
0.665441 0.046078 0.000000
0.687623 0.046078 0.000000
0.709804 0.046078 0.000000
0.000000 0.069118 0.000000
0.022181 0.069118 0.000000
0.044363 0.069118 0.000000
0.066544 0.069118 0.000000
0.088725 0.069118 0.000000
0.110907 0.069118 0.000000
0.133088 0.069118 0.000000
0.155270 0.069118 0.000000
0.177451 0.069118 0.000000
0.199632 0.069118 0.000000
0.221814 0.069118 0.000000
0.243995 0.069118 0.000000
0.266176 0.069118 0.000000
0.288358 0.069118 0.000000
0.310539 0.069118 0.000000
0.332721 0.069118 0.000000
0.354902 0.069118 0.000000
0.377083 0.069118 0.000000
0.399265 0.069118 0.000000
0.421446 0.069118 0.000000
0.443627 0.069118 0.000000
0.465809 0.069118 0.000000
0.487990 0.069118 0.000000
0.510172 0.069118 0.000000
0.532353 0.069118 0.000000
0.554534 0.069118 0.000000
0.576716 0.069118 0.000000
0.598897 0.069118 0.000000
0.621078 0.069118 0.000000
0.643260 0.069118 0.000000
0.665441 0.069118 0.000000
0.687623 0.069118 0.000000
0.709804 0.069118 0.000000
0.000000 0.092157 0.000000
0.022181 0.092157 0.000000
0.044363 0.092157 0.000000
0.066544 0.092157 0.000000
0.088725 0.092157 0.000000
0.110907 0.092157 0.000000
0.133088 0.092157 0.000000
0.155270 0.092157 0.000000
0.177451 0.092157 0.000000
0.199632 0.092157 0.000000
0.221814 0.092157 0.000000
0.243995 0.092157 0.000000
0.266176 0.092157 0.000000
0.288358 0.092157 0.000000
0.310539 0.092157 0.000000
0.332721 0.092157 0.000000
0.354902 0.092157 0.000000
0.377083 0.092157 0.000000
0.399265 0.092157 0.000000
0.421446 0.092157 0.000000
0.443627 0.092157 0.000000
0.465809 0.092157 0.000000
0.487990 0.092157 0.000000
0.510172 0.092157 0.000000
0.532353 0.092157 0.000000
0.554534 0.092157 0.000000
0.576716 0.092157 0.000000
0.598897 0.092157 0.000000
0.621078 0.092157 0.000000
0.643260 0.092157 0.000000
0.665441 0.092157 0.000000
0.687623 0.092157 0.000000
0.709804 0.092157 0.000000
0.000000 0.115196 0.000000
0.022181 0.115196 0.000000
0.044363 0.115196 0.000000
0.066544 0.115196 0.000000
0.088725 0.115196 0.000000
0.110907 0.115196 0.000000
0.133088 0.115196 0.000000
0.155270 0.115196 0.000000
0.177451 0.115196 0.000000
0.199632 0.115196 0.000000
0.221814 0.115196 0.000000
0.243995 0.115196 0.000000
0.266176 0.115196 0.000000
0.288358 0.115196 0.000000
0.310539 0.115196 0.000000
0.332721 0.115196 0.000000
0.354902 0.115196 0.000000
0.377083 0.115196 0.000000
0.399265 0.115196 0.000000
0.421446 0.115196 0.000000
0.443627 0.115196 0.000000
0.465809 0.115196 0.000000
0.487990 0.115196 0.000000
0.510172 0.115196 0.000000
0.532353 0.115196 0.000000
0.554534 0.115196 0.000000
0.576716 0.115196 0.000000
0.598897 0.115196 0.000000
0.621078 0.115196 0.000000
0.643260 0.115196 0.000000
0.665441 0.115196 0.000000
0.687623 0.115196 0.000000
0.709804 0.115196 0.000000
0.000000 0.138235 0.000000
0.022181 0.138235 0.000000
0.044363 0.138235 0.000000
0.066544 0.138235 0.000000
0.088725 0.138235 0.000000
0.110907 0.138235 0.000000
0.133088 0.138235 0.000000
0.155270 0.138235 0.000000
0.177451 0.138235 0.000000
0.199632 0.138235 0.000000
0.221814 0.138235 0.000000
0.243995 0.138235 0.000000
0.266176 0.138235 0.000000
0.288358 0.138235 0.000000
0.310539 0.138235 0.000000
0.332721 0.138235 0.000000
0.354902 0.138235 0.000000
0.377083 0.138235 0.000000
0.399265 0.138235 0.000000
0.421446 0.138235 0.000000
0.443627 0.138235 0.000000
0.465809 0.138235 0.000000
0.487990 0.138235 0.000000
0.510172 0.138235 0.000000
0.532353 0.138235 0.000000
0.554534 0.138235 0.000000
0.576716 0.138235 0.000000
0.598897 0.138235 0.000000
0.621078 0.138235 0.000000
0.643260 0.138235 0.000000
0.665441 0.138235 0.000000
0.687623 0.138235 0.000000
0.709804 0.138235 0.000000
0.000000 0.161275 0.000000
0.022181 0.161275 0.000000
0.044363 0.161275 0.000000
0.066544 0.161275 0.000000
0.088725 0.161275 0.000000
0.110907 0.161275 0.000000
0.133088 0.161275 0.000000
0.155270 0.161275 0.000000
0.177451 0.161275 0.000000
0.199632 0.161275 0.000000
0.221814 0.161275 0.000000
0.243995 0.161275 0.000000
0.266176 0.161275 0.000000
0.288358 0.161275 0.000000
0.310539 0.161275 0.000000
0.332721 0.161275 0.000000
0.354902 0.161275 0.000000
0.377083 0.161275 0.000000
0.399265 0.161275 0.000000
0.421446 0.161275 0.000000
0.443627 0.161275 0.000000
0.465809 0.161275 0.000000
0.487990 0.161275 0.000000
0.510172 0.161275 0.000000
0.532353 0.161275 0.000000
0.554534 0.161275 0.000000
0.576716 0.161275 0.000000
0.598897 0.161275 0.000000
0.621078 0.161275 0.000000
0.643260 0.161275 0.000000
0.665441 0.161275 0.000000
0.687623 0.161275 0.000000
0.709804 0.161275 0.000000
0.000000 0.184314 0.000000
0.022181 0.184314 0.000000
0.044363 0.184314 0.000000
0.066544 0.184314 0.000000
0.088725 0.184314 0.000000
0.110907 0.184314 0.000000
0.133088 0.184314 0.000000
0.155270 0.184314 0.000000
0.177451 0.184314 0.000000
0.199632 0.184314 0.000000
0.221814 0.184314 0.000000
0.243995 0.184314 0.000000
0.266176 0.184314 0.000000
0.288358 0.184314 0.000000
0.310539 0.184314 0.000000
0.332721 0.184314 0.000000
0.354902 0.184314 0.000000
0.377083 0.184314 0.000000
0.399265 0.184314 0.000000
0.421446 0.184314 0.000000
0.443627 0.184314 0.000000
0.465809 0.184314 0.000000
0.487990 0.184314 0.000000
0.510172 0.184314 0.000000
0.532353 0.184314 0.000000
0.554534 0.184314 0.000000
0.576716 0.184314 0.000000
0.598897 0.184314 0.000000
0.621078 0.184314 0.000000
0.643260 0.184314 0.000000
0.665441 0.184314 0.000000
0.687623 0.184314 0.000000
0.709804 0.184314 0.000000
0.000000 0.207353 0.000000
0.022181 0.207353 0.000000
0.044363 0.207353 0.000000
0.066544 0.207353 0.000000
0.088725 0.207353 0.000000
0.110907 0.207353 0.000000
0.133088 0.207353 0.000000
0.155270 0.207353 0.000000
0.177451 0.207353 0.000000
0.199632 0.207353 0.000000
0.221814 0.207353 0.000000
0.243995 0.207353 0.000000
0.266176 0.207353 0.000000
0.288358 0.207353 0.000000
0.310539 0.207353 0.000000
0.332721 0.207353 0.000000
0.354902 0.207353 0.000000
0.377083 0.207353 0.000000
0.399265 0.207353 0.000000
0.421446 0.207353 0.000000
0.443627 0.207353 0.000000
0.465809 0.207353 0.000000
0.487990 0.207353 0.000000
0.510172 0.207353 0.000000
0.532353 0.207353 0.000000
0.554534 0.207353 0.000000
0.576716 0.207353 0.000000
0.598897 0.207353 0.000000
0.621078 0.207353 0.000000
0.643260 0.207353 0.000000
0.665441 0.207353 0.000000
0.687623 0.207353 0.000000
0.709804 0.207353 0.000000
0.000000 0.230392 0.000000
0.022181 0.230392 0.000000
0.044363 0.230392 0.000000
0.066544 0.230392 0.000000
0.088725 0.230392 0.000000
0.110907 0.230392 0.000000
0.133088 0.230392 0.000000
0.155270 0.230392 0.000000
0.177451 0.230392 0.000000
0.199632 0.230392 0.000000
0.221814 0.230392 0.000000
0.243995 0.230392 0.000000
0.266176 0.230392 0.000000
0.288358 0.230392 0.000000
0.310539 0.230392 0.000000
0.332721 0.230392 0.000000
0.354902 0.230392 0.000000
0.377083 0.230392 0.000000
0.399265 0.230392 0.000000
0.421446 0.230392 0.000000
0.443627 0.230392 0.000000
0.465809 0.230392 0.000000
0.487990 0.230392 0.000000
0.510172 0.230392 0.000000
0.532353 0.230392 0.000000
0.554534 0.230392 0.000000
0.576716 0.230392 0.000000
0.598897 0.230392 0.000000
0.621078 0.230392 0.000000
0.643260 0.230392 0.000000
0.665441 0.230392 0.000000
0.687623 0.230392 0.000000
0.709804 0.230392 0.000000
0.000000 0.253431 0.000000
0.022181 0.253431 0.000000
0.044363 0.253431 0.000000
0.066544 0.253431 0.000000
0.088725 0.253431 0.000000
0.110907 0.253431 0.000000
0.133088 0.253431 0.000000
0.155270 0.253431 0.000000
0.177451 0.253431 0.000000
0.199632 0.253431 0.000000
0.221814 0.253431 0.000000
0.243995 0.253431 0.000000
0.266176 0.253431 0.000000
0.288358 0.253431 0.000000
0.310539 0.253431 0.000000
0.332721 0.253431 0.000000
0.354902 0.253431 0.000000
0.377083 0.253431 0.000000
0.399265 0.253431 0.000000
0.421446 0.253431 0.000000
0.443627 0.253431 0.000000
0.465809 0.253431 0.000000
0.487990 0.253431 0.000000
0.510172 0.253431 0.000000
0.532353 0.253431 0.000000
0.554534 0.253431 0.000000
0.576716 0.253431 0.000000
0.598897 0.253431 0.000000
0.621078 0.253431 0.000000
0.643260 0.253431 0.000000
0.665441 0.253431 0.000000
0.687623 0.253431 0.000000
0.709804 0.253431 0.000000
0.000000 0.276471 0.000000
0.022181 0.276471 0.000000
0.044363 0.276471 0.000000
0.066544 0.276471 0.000000
0.088725 0.276471 0.000000
0.110907 0.276471 0.000000
0.133088 0.276471 0.000000
0.155270 0.276471 0.000000
0.177451 0.276471 0.000000
0.199632 0.276471 0.000000
0.221814 0.276471 0.000000
0.243995 0.276471 0.000000
0.266176 0.276471 0.000000
0.288358 0.276471 0.000000
0.310539 0.276471 0.000000
0.332721 0.276471 0.000000
0.354902 0.276471 0.000000
0.377083 0.276471 0.000000
0.399265 0.276471 0.000000
0.421446 0.276471 0.000000
0.443627 0.276471 0.000000
0.465809 0.276471 0.000000
0.487990 0.276471 0.000000
0.510172 0.276471 0.000000
0.532353 0.276471 0.000000
0.554534 0.276471 0.000000
0.576716 0.276471 0.000000
0.598897 0.276471 0.000000
0.621078 0.276471 0.000000
0.643260 0.276471 0.000000
0.665441 0.276471 0.000000
0.687623 0.276471 0.000000
0.709804 0.276471 0.000000
0.000000 0.299510 0.000000
0.022181 0.299510 0.000000
0.044363 0.299510 0.000000
0.066544 0.299510 0.000000
0.088725 0.299510 0.000000
0.110907 0.299510 0.000000
0.133088 0.299510 0.000000
0.155270 0.299510 0.000000
0.177451 0.299510 0.000000
0.199632 0.299510 0.000000
0.221814 0.299510 0.000000
0.243995 0.299510 0.000000
0.266176 0.299510 0.000000
0.288358 0.299510 0.000000
0.310539 0.299510 0.000000
0.332721 0.299510 0.000000
0.354902 0.299510 0.000000
0.377083 0.299510 0.000000
0.399265 0.299510 0.000000
0.421446 0.299510 0.000000
0.443627 0.299510 0.000000
0.465809 0.299510 0.000000
0.487990 0.299510 0.000000
0.510172 0.299510 0.000000
0.532353 0.299510 0.000000
0.554534 0.299510 0.000000
0.576716 0.299510 0.000000
0.598897 0.299510 0.000000
0.621078 0.299510 0.000000
0.643260 0.299510 0.000000
0.665441 0.299510 0.000000
0.687623 0.299510 0.000000
0.709804 0.299510 0.000000
0.000000 0.322549 0.000000
0.022181 0.322549 0.000000
0.044363 0.322549 0.000000
0.066544 0.322549 0.000000
0.088725 0.322549 0.000000
0.110907 0.322549 0.000000
0.133088 0.322549 0.000000
0.155270 0.322549 0.000000
0.177451 0.322549 0.000000
0.199632 0.322549 0.000000
0.221814 0.322549 0.000000
0.243995 0.322549 0.000000
0.266176 0.322549 0.000000
0.288358 0.322549 0.000000
0.310539 0.322549 0.000000
0.332721 0.322549 0.000000
0.354902 0.322549 0.000000
0.377083 0.322549 0.000000
0.399265 0.322549 0.000000
0.421446 0.322549 0.000000
0.443627 0.322549 0.000000
0.465809 0.322549 0.000000
0.487990 0.322549 0.000000
0.510172 0.322549 0.000000
0.532353 0.322549 0.000000
0.554534 0.322549 0.000000
0.576716 0.322549 0.000000
0.598897 0.322549 0.000000
0.621078 0.322549 0.000000
0.643260 0.322549 0.000000
0.665441 0.322549 0.000000
0.687623 0.322549 0.000000
0.709804 0.322549 0.000000
0.000000 0.345588 0.000000
0.022181 0.345588 0.000000
0.044363 0.345588 0.000000
0.066544 0.345588 0.000000
0.088725 0.345588 0.000000
0.110907 0.345588 0.000000
0.133088 0.345588 0.000000
0.155270 0.345588 0.000000
0.177451 0.345588 0.000000
0.199632 0.345588 0.000000
0.221814 0.345588 0.000000
0.243995 0.345588 0.000000
0.266176 0.345588 0.000000
0.288358 0.345588 0.000000
0.310539 0.345588 0.000000
0.332721 0.345588 0.000000
0.354902 0.345588 0.000000
0.377083 0.345588 0.000000
0.399265 0.345588 0.000000
0.421446 0.345588 0.000000
0.443627 0.345588 0.000000
0.465809 0.345588 0.000000
0.487990 0.345588 0.000000
0.510172 0.345588 0.000000
0.532353 0.345588 0.000000
0.554534 0.345588 0.000000
0.576716 0.345588 0.000000
0.598897 0.345588 0.000000
0.621078 0.345588 0.000000
0.643260 0.345588 0.000000
0.665441 0.345588 0.000000
0.687623 0.345588 0.000000
0.709804 0.345588 0.000000
0.000000 0.368627 0.000000
0.022181 0.368627 0.000000
0.044363 0.368627 0.000000
0.066544 0.368627 0.000000
0.088725 0.368627 0.000000
0.110907 0.368627 0.000000
0.133088 0.368627 0.000000
0.155270 0.368627 0.000000
0.177451 0.368627 0.000000
0.199632 0.368627 0.000000
0.221814 0.368627 0.000000
0.243995 0.368627 0.000000
0.266176 0.368627 0.000000
0.288358 0.368627 0.000000
0.310539 0.368627 0.000000
0.332721 0.368627 0.000000
0.354902 0.368627 0.000000
0.377083 0.368627 0.000000
0.399265 0.368627 0.000000
0.421446 0.368627 0.000000
0.443627 0.368627 0.000000
0.465809 0.368627 0.000000
0.487990 0.368627 0.000000
0.510172 0.368627 0.000000
0.532353 0.368627 0.000000
0.554534 0.368627 0.000000
0.576716 0.368627 0.000000
0.598897 0.368627 0.000000
0.621078 0.368627 0.000000
0.643260 0.368627 0.000000
0.665441 0.368627 0.000000
0.687623 0.368627 0.000000
0.709804 0.368627 0.000000
0.000000 0.391667 0.000000
0.022181 0.391667 0.000000
0.044363 0.391667 0.000000
0.066544 0.391667 0.000000
0.088725 0.391667 0.000000
0.110907 0.391667 0.000000
0.133088 0.391667 0.000000
0.155270 0.391667 0.000000
0.177451 0.391667 0.000000
0.199632 0.391667 0.000000
0.221814 0.391667 0.000000
0.243995 0.391667 0.000000
0.266176 0.391667 0.000000
0.288358 0.391667 0.000000
0.310539 0.391667 0.000000
0.332721 0.391667 0.000000
0.354902 0.391667 0.000000
0.377083 0.391667 0.000000
0.399265 0.391667 0.000000
0.421446 0.391667 0.000000
0.443627 0.391667 0.000000
0.465809 0.391667 0.000000
0.487990 0.391667 0.000000
0.510172 0.391667 0.000000
0.532353 0.391667 0.000000
0.554534 0.391667 0.000000
0.576716 0.391667 0.000000
0.598897 0.391667 0.000000
0.621078 0.391667 0.000000
0.643260 0.391667 0.000000
0.665441 0.391667 0.000000
0.687623 0.391667 0.000000
0.709804 0.391667 0.000000
0.000000 0.414706 0.000000
0.022181 0.414706 0.000000
0.044363 0.414706 0.000000
0.066544 0.414706 0.000000
0.088725 0.414706 0.000000
0.110907 0.414706 0.000000
0.133088 0.414706 0.000000
0.155270 0.414706 0.000000
0.177451 0.414706 0.000000
0.199632 0.414706 0.000000
0.221814 0.414706 0.000000
0.243995 0.414706 0.000000
0.266176 0.414706 0.000000
0.288358 0.414706 0.000000
0.310539 0.414706 0.000000
0.332721 0.414706 0.000000
0.354902 0.414706 0.000000
0.377083 0.414706 0.000000
0.399265 0.414706 0.000000
0.421446 0.414706 0.000000
0.443627 0.414706 0.000000
0.465809 0.414706 0.000000
0.487990 0.414706 0.000000
0.510172 0.414706 0.000000
0.532353 0.414706 0.000000
0.554534 0.414706 0.000000
0.576716 0.414706 0.000000
0.598897 0.414706 0.000000
0.621078 0.414706 0.000000
0.643260 0.414706 0.000000
0.665441 0.414706 0.000000
0.687623 0.414706 0.000000
0.709804 0.414706 0.000000
0.000000 0.437745 0.000000
0.022181 0.437745 0.000000
0.044363 0.437745 0.000000
0.066544 0.437745 0.000000
0.088725 0.437745 0.000000
0.110907 0.437745 0.000000
0.133088 0.437745 0.000000
0.155270 0.437745 0.000000
0.177451 0.437745 0.000000
0.199632 0.437745 0.000000
0.221814 0.437745 0.000000
0.243995 0.437745 0.000000
0.266176 0.437745 0.000000
0.288358 0.437745 0.000000
0.310539 0.437745 0.000000
0.332721 0.437745 0.000000
0.354902 0.437745 0.000000
0.377083 0.437745 0.000000
0.399265 0.437745 0.000000
0.421446 0.437745 0.000000
0.443627 0.437745 0.000000
0.465809 0.437745 0.000000
0.487990 0.437745 0.000000
0.510172 0.437745 0.000000
0.532353 0.437745 0.000000
0.554534 0.437745 0.000000
0.576716 0.437745 0.000000
0.598897 0.437745 0.000000
0.621078 0.437745 0.000000
0.643260 0.437745 0.000000
0.665441 0.437745 0.000000
0.687623 0.437745 0.000000
0.709804 0.437745 0.000000
0.000000 0.460784 0.000000
0.022181 0.460784 0.000000
0.044363 0.460784 0.000000
0.066544 0.460784 0.000000
0.088725 0.460784 0.000000
0.110907 0.460784 0.000000
0.133088 0.460784 0.000000
0.155270 0.460784 0.000000
0.177451 0.460784 0.000000
0.199632 0.460784 0.000000
0.221814 0.460784 0.000000
0.243995 0.460784 0.000000
0.266176 0.460784 0.000000
0.288358 0.460784 0.000000
0.310539 0.460784 0.000000
0.332721 0.460784 0.000000
0.354902 0.460784 0.000000
0.377083 0.460784 0.000000
0.399265 0.460784 0.000000
0.421446 0.460784 0.000000
0.443627 0.460784 0.000000
0.465809 0.460784 0.000000
0.487990 0.460784 0.000000
0.510172 0.460784 0.000000
0.532353 0.460784 0.000000
0.554534 0.460784 0.000000
0.576716 0.460784 0.000000
0.598897 0.460784 0.000000
0.621078 0.460784 0.000000
0.643260 0.460784 0.000000
0.665441 0.460784 0.000000
0.687623 0.460784 0.000000
0.709804 0.460784 0.000000
0.000000 0.483824 0.000000
0.022181 0.483824 0.000000
0.044363 0.483824 0.000000
0.066544 0.483824 0.000000
0.088725 0.483824 0.000000
0.110907 0.483824 0.000000
0.133088 0.483824 0.000000
0.155270 0.483824 0.000000
0.177451 0.483824 0.000000
0.199632 0.483824 0.000000
0.221814 0.483824 0.000000
0.243995 0.483824 0.000000
0.266176 0.483824 0.000000
0.288358 0.483824 0.000000
0.310539 0.483824 0.000000
0.332721 0.483824 0.000000
0.354902 0.483824 0.000000
0.377083 0.483824 0.000000
0.399265 0.483824 0.000000
0.421446 0.483824 0.000000
0.443627 0.483824 0.000000
0.465809 0.483824 0.000000
0.487990 0.483824 0.000000
0.510172 0.483824 0.000000
0.532353 0.483824 0.000000
0.554534 0.483824 0.000000
0.576716 0.483824 0.000000
0.598897 0.483824 0.000000
0.621078 0.483824 0.000000
0.643260 0.483824 0.000000
0.665441 0.483824 0.000000
0.687623 0.483824 0.000000
0.709804 0.483824 0.000000
0.000000 0.506863 0.000000
0.022181 0.506863 0.000000
0.044363 0.506863 0.000000
0.066544 0.506863 0.000000
0.088725 0.506863 0.000000
0.110907 0.506863 0.000000
0.133088 0.506863 0.000000
0.155270 0.506863 0.000000
0.177451 0.506863 0.000000
0.199632 0.506863 0.000000
0.221814 0.506863 0.000000
0.243995 0.506863 0.000000
0.266176 0.506863 0.000000
0.288358 0.506863 0.000000
0.310539 0.506863 0.000000
0.332721 0.506863 0.000000
0.354902 0.506863 0.000000
0.377083 0.506863 0.000000
0.399265 0.506863 0.000000
0.421446 0.506863 0.000000
0.443627 0.506863 0.000000
0.465809 0.506863 0.000000
0.487990 0.506863 0.000000
0.510172 0.506863 0.000000
0.532353 0.506863 0.000000
0.554534 0.506863 0.000000
0.576716 0.506863 0.000000
0.598897 0.506863 0.000000
0.621078 0.506863 0.000000
0.643260 0.506863 0.000000
0.665441 0.506863 0.000000
0.687623 0.506863 0.000000
0.709804 0.506863 0.000000
0.000000 0.529902 0.000000
0.022181 0.529902 0.000000
0.044363 0.529902 0.000000
0.066544 0.529902 0.000000
0.088725 0.529902 0.000000
0.110907 0.529902 0.000000
0.133088 0.529902 0.000000
0.155270 0.529902 0.000000
0.177451 0.529902 0.000000
0.199632 0.529902 0.000000
0.221814 0.529902 0.000000
0.243995 0.529902 0.000000
0.266176 0.529902 0.000000
0.288358 0.529902 0.000000
0.310539 0.529902 0.000000
0.332721 0.529902 0.000000
0.354902 0.529902 0.000000
0.377083 0.529902 0.000000
0.399265 0.529902 0.000000
0.421446 0.529902 0.000000
0.443627 0.529902 0.000000
0.465809 0.529902 0.000000
0.487990 0.529902 0.000000
0.510172 0.529902 0.000000
0.532353 0.529902 0.000000
0.554534 0.529902 0.000000
0.576716 0.529902 0.000000
0.598897 0.529902 0.000000
0.621078 0.529902 0.000000
0.643260 0.529902 0.000000
0.665441 0.529902 0.000000
0.687623 0.529902 0.000000
0.709804 0.529902 0.000000
0.000000 0.552941 0.000000
0.022181 0.552941 0.000000
0.044363 0.552941 0.000000
0.066544 0.552941 0.000000
0.088725 0.552941 0.000000
0.110907 0.552941 0.000000
0.133088 0.552941 0.000000
0.155270 0.552941 0.000000
0.177451 0.552941 0.000000
0.199632 0.552941 0.000000
0.221814 0.552941 0.000000
0.243995 0.552941 0.000000
0.266176 0.552941 0.000000
0.288358 0.552941 0.000000
0.310539 0.552941 0.000000
0.332721 0.552941 0.000000
0.354902 0.552941 0.000000
0.377083 0.552941 0.000000
0.399265 0.552941 0.000000
0.421446 0.552941 0.000000
0.443627 0.552941 0.000000
0.465809 0.552941 0.000000
0.487990 0.552941 0.000000
0.510172 0.552941 0.000000
0.532353 0.552941 0.000000
0.554534 0.552941 0.000000
0.576716 0.552941 0.000000
0.598897 0.552941 0.000000
0.621078 0.552941 0.000000
0.643260 0.552941 0.000000
0.665441 0.552941 0.000000
0.687623 0.552941 0.000000
0.709804 0.552941 0.000000
0.000000 0.575980 0.000000
0.022181 0.575980 0.000000
0.044363 0.575980 0.000000
0.066544 0.575980 0.000000
0.088725 0.575980 0.000000
0.110907 0.575980 0.000000
0.133088 0.575980 0.000000
0.155270 0.575980 0.000000
0.177451 0.575980 0.000000
0.199632 0.575980 0.000000
0.221814 0.575980 0.000000
0.243995 0.575980 0.000000
0.266176 0.575980 0.000000
0.288358 0.575980 0.000000
0.310539 0.575980 0.000000
0.332721 0.575980 0.000000
0.354902 0.575980 0.000000
0.377083 0.575980 0.000000
0.399265 0.575980 0.000000
0.421446 0.575980 0.000000
0.443627 0.575980 0.000000
0.465809 0.575980 0.000000
0.487990 0.575980 0.000000
0.510172 0.575980 0.000000
0.532353 0.575980 0.000000
0.554534 0.575980 0.000000
0.576716 0.575980 0.000000
0.598897 0.575980 0.000000
0.621078 0.575980 0.000000
0.643260 0.575980 0.000000
0.665441 0.575980 0.000000
0.687623 0.575980 0.000000
0.709804 0.575980 0.000000
0.000000 0.599020 0.000000
0.022181 0.599020 0.000000
0.044363 0.599020 0.000000
0.066544 0.599020 0.000000
0.088725 0.599020 0.000000
0.110907 0.599020 0.000000
0.133088 0.599020 0.000000
0.155270 0.599020 0.000000
0.177451 0.599020 0.000000
0.199632 0.599020 0.000000
0.221814 0.599020 0.000000
0.243995 0.599020 0.000000
0.266176 0.599020 0.000000
0.288358 0.599020 0.000000
0.310539 0.599020 0.000000
0.332721 0.599020 0.000000
0.354902 0.599020 0.000000
0.377083 0.599020 0.000000
0.399265 0.599020 0.000000
0.421446 0.599020 0.000000
0.443627 0.599020 0.000000
0.465809 0.599020 0.000000
0.487990 0.599020 0.000000
0.510172 0.599020 0.000000
0.532353 0.599020 0.000000
0.554534 0.599020 0.000000
0.576716 0.599020 0.000000
