backend/lut_exports/100eb8139f6a4cff8d905d2cc6f1e828.cube
TITLE "PresetForge Generated LUT"
LUT_3D_SIZE 5
DOMAIN_MIN 0.0 0.0 0.0
DOMAIN_MAX 1.0 1.0 1.0
0.000000 0.000000 0.000000
0.177451 0.000000 0.000000
0.354902 0.000000 0.000000
0.532353 0.000000 0.000000
0.709804 0.000000 0.000000
0.000000 0.184314 0.000000
0.177451 0.184314 0.000000
0.354902 0.184314 0.000000
0.532353 0.184314 0.000000
0.709804 0.184314 0.000000
0.000000 0.368627 0.000000
0.177451 0.368627 0.000000
0.354902 0.368627 0.000000
0.532353 0.368627 0.000000
0.709804 0.368627 0.000000
0.000000 0.552941 0.000000
0.177451 0.552941 0.000000
0.354902 0.552941 0.000000
0.532353 0.552941 0.000000
0.709804 0.552941 0.000000
0.000000 0.737255 0.000000
0.177451 0.737255 0.000000
0.354902 0.737255 0.000000
0.532353 0.737255 0.000000
0.709804 0.737255 0.000000
0.000000 0.000000 0.181373
0.177451 0.000000 0.181373
0.354902 0.000000 0.181373
0.532353 0.000000 0.181373
0.709804 0.000000 0.181373
0.000000 0.184314 0.181373
0.177451 0.184314 0.181373
0.354902 0.184314 0.181373
0.532353 0.184314 0.181373
0.709804 0.184314 0.181373
0.000000 0.368627 0.181373
0.177451 0.368627 0.181373
0.354902 0.368627 0.181373
0.532353 0.368627 0.181373
0.709804 0.368627 0.181373
0.000000 0.552941 0.181373
0.177451 0.552941 0.181373
0.354902 0.552941 0.181373
0.532353 0.552941 0.181373
0.709804 0.552941 0.181373
0.000000 0.737255 0.181373
0.177451 0.737255 0.181373
0.354902 0.737255 0.181373
0.532353 0.737255 0.181373
0.709804 0.737255 0.181373
0.000000 0.000000 0.362745
0.177451 0.000000 0.362745
0.354902 0.000000 0.362745
0.532353 0.000000 0.362745
0.709804 0.000000 0.362745
0.000000 0.184314 0.362745
0.177451 0.184314 0.362745
0.354902 0.184314 0.362745
0.532353 0.184314 0.362745
0.709804 0.184314 0.362745
0.000000 0.368627 0.362745
0.177451 0.368627 0.362745
0.354902 0.368627 0.362745
0.532353 0.368627 0.362745
0.709804 0.368627 0.362745
0.000000 0.552941 0.362745
0.177451 0.552941 0.362745
0.354902 0.552941 0.362745
0.532353 0.552941 0.362745
0.709804 0.552941 0.362745
0.000000 0.737255 0.362745
0.177451 0.737255 0.362745
0.354902 0.737255 0.362745
0.532353 0.737255 0.362745
0.709804 0.737255 0.362745
0.000000 0.000000 0.544118
0.177451 0.000000 0.544118
0.354902 0.000000 0.544118
0.532353 0.000000 0.544118
0.709804 0.000000 0.544118
0.000000 0.184314 0.544118
0.177451 0.184314 0.544118
0.354902 0.184314 0.544118
0.532353 0.184314 0.544118
0.709804 0.184314 0.544118
0.000000 0.368627 0.544118
0.177451 0.368627 0.544118
0.354902 0.368627 0.544118
0.532353 0.368627 0.544118
0.709804 0.368627 0.544118
0.000000 0.552941 0.544118
0.177451 0.552941 0.544118
0.354902 0.552941 0.544118
0.532353 0.552941 0.544118
0.709804 0.552941 0.544118
0.000000 0.737255 0.544118
0.177451 0.737255 0.544118
0.354902 0.737255 0.544118
0.532353 0.737255 0.544118
0.709804 0.737255 0.544118
0.000000 0.000000 0.725490
0.177451 0.000000 0.725490
0.354902 0.000000 0.725490
0.532353 0.000000 0.725490
0.709804 0.000000 0.725490
0.000000 0.184314 0.725490
0.177451 0.184314 0.725490
0.354902 0.184314 0.725490
0.532353 0.184314 0.725490
0.709804 0.184314 0.725490
0.000000 0.368627 0.725490
0.177451 0.368627 0.725490
0.354902 0.368627 0.725490
0.532353 0.368627 0.725490
0.709804 0.368627 0.725490
0.000000 0.552941 0.725490
0.177451 0.552941 0.725490
0.354902 0.552941 0.725490
0.532353 0.552941 0.725490
0.709804 0.552941 0.725490
0.000000 0.737255 0.725490
0.177451 0.737255 0.725490
0.354902 0.737255 0.725490
0.532353 0.737255 0.725490
0.709804 0.737255 0.725490
