backend/lut_exports/100eb8139f6a4cff8d905d2cc6f1e828.cube
TITLE "PresetForge Generated LUT"
LUT_3D_SIZE 9
DOMAIN_MIN 0.0 0.0 0.0
DOMAIN_MAX 1.0 1.0 1.0
0.000000 0.000000 0.000000
0.088725 0.000000 0.000000
0.177451 0.000000 0.000000
0.266176 0.000000 0.000000
0.354902 0.000000 0.000000
0.443627 0.000000 0.000000
0.532353 0.000000 0.000000
0.621078 0.000000 0.000000
0.709804 0.000000 0.000000
0.000000 0.092157 0.000000
0.088725 0.092157 0.000000
0.177451 0.092157 0.000000
0.266176 0.092157 0.000000
0.354902 0.092157 0.000000
0.443627 0.092157 0.000000
0.532353 0.092157 0.000000
0.621078 0.092157 0.000000
0.709804 0.092157 0.000000
0.000000 0.184314 0.000000
0.088725 0.184314 0.000000
0.177451 0.184314 0.000000
0.266176 0.184314 0.000000
0.354902 0.184314 0.000000
0.443627 0.184314 0.000000
0.532353 0.184314 0.000000
0.621078 0.184314 0.000000
0.709804 0.184314 0.000000
0.000000 0.276471 0.000000
0.088725 0.276471 0.000000
0.177451 0.276471 0.000000
0.266176 0.276471 0.000000
0.354902 0.276471 0.000000
0.443627 0.276471 0.000000
0.532353 0.276471 0.000000
0.621078 0.276471 0.000000
0.709804 0.276471 0.000000
0.000000 0.368627 0.000000
0.088725 0.368627 0.000000
0.177451 0.368627 0.000000
0.266176 0.368627 0.000000
0.354902 0.368627 0.000000
0.443627 0.368627 0.000000
0.532353 0.368627 0.000000
0.621078 0.368627 0.000000
0.709804 0.368627 0.000000
0.000000 0.460784 0.000000
0.088725 0.460784 0.000000
0.177451 0.460784 0.000000
0.266176 0.460784 0.000000
0.354902 0.460784 0.000000
0.443627 0.460784 0.000000
0.532353 0.460784 0.000000
0.621078 0.460784 0.000000
0.709804 0.460784 0.000000
0.000000 0.552941 0.000000
0.088725 0.552941 0.000000
0.177451 0.552941 0.000000
0.266176 0.552941 0.000000
0.354902 0.552941 0.000000
0.443627 0.552941 0.000000
0.532353 0.552941 0.000000
0.621078 0.552941 0.000000
0.709804 0.552941 0.000000
0.000000 0.645098 0.000000
0.088725 0.645098 0.000000
0.177451 0.645098 0.000000
0.266176 0.645098 0.000000
0.354902 0.645098 0.000000
0.443627 0.645098 0.000000
0.532353 0.645098 0.000000
0.621078 0.645098 0.000000
0.709804 0.645098 0.000000
0.000000 0.737255 0.000000
0.088725 0.737255 0.000000
0.177451 0.737255 0.000000
0.266176 0.737255 0.000000
0.354902 0.737255 0.000000
0.443627 0.737255 0.000000
0.532353 0.737255 0.000000
0.621078 0.737255 0.000000
0.709804 0.737255 0.000000
0.000000 0.000000 0.090686
0.088725 0.000000 0.090686
0.177451 0.000000 0.090686
0.266176 0.000000 0.090686
0.354902 0.000000 0.090686
0.443627 0.000000 0.090686
0.532353 0.000000 0.090686
0.621078 0.000000 0.090686
0.709804 0.000000 0.090686
0.000000 0.092157 0.090686
0.088725 0.092157 0.090686
0.177451 0.092157 0.090686
0.266176 0.092157 0.090686
0.354902 0.092157 0.090686
0.443627 0.092157 0.090686
0.532353 0.092157 0.090686
0.621078 0.092157 0.090686
0.709804 0.092157 0.090686
0.000000 0.184314 0.090686
0.088725 0.184314 0.090686
0.177451 0.184314 0.090686
0.266176 0.184314 0.090686
0.354902 0.184314 0.090686
0.443627 0.184314 0.090686
0.532353 0.184314 0.090686
0.621078 0.184314 0.090686
0.709804 0.184314 0.090686
0.000000 0.276471 0.090686
0.088725 0.276471 0.090686
0.177451 0.276471 0.090686
0.266176 0.276471 0.090686
0.354902 0.276471 0.090686
0.443627 0.276471 0.090686
0.532353 0.276471 0.090686
0.621078 0.276471 0.090686
0.709804 0.276471 0.090686
0.000000 0.368627 0.090686
0.088725 0.368627 0.090686
0.177451 0.368627 0.090686
0.266176 0.368627 0.090686
0.354902 0.368627 0.090686
0.443627 0.368627 0.090686
0.532353 0.368627 0.090686
0.621078 0.368627 0.090686
0.709804 0.368627 0.090686
0.000000 0.460784 0.090686
0.088725 0.460784 0.090686
0.177451 0.460784 0.090686
0.266176 0.460784 0.090686
0.354902 0.460784 0.090686
0.443627 0.460784 0.090686
0.532353 0.460784 0.090686
0.621078 0.460784 0.090686
0.709804 0.460784 0.090686
0.000000 0.552941 0.090686
0.088725 0.552941 0.090686
0.177451 0.552941 0.090686
0.266176 0.552941 0.090686
0.354902 0.552941 0.090686
0.443627 0.552941 0.090686
0.532353 0.552941 0.090686
0.621078 0.552941 0.090686
0.709804 0.552941 0.090686
0.000000 0.645098 0.090686
0.088725 0.645098 0.090686
0.177451 0.645098 0.090686
0.266176 0.645098 0.090686
0.354902 0.645098 0.090686
0.443627 0.645098 0.090686
0.532353 0.645098 0.090686
0.621078 0.645098 0.090686
0.709804 0.645098 0.090686
0.000000 0.737255 0.090686
0.088725 0.737255 0.090686
0.177451 0.737255 0.090686
0.266176 0.737255 0.090686
0.354902 0.737255 0.090686
0.443627 0.737255 0.090686
0.532353 0.737255 0.090686
0.621078 0.737255 0.090686
0.709804 0.737255 0.090686
0.000000 0.000000 0.181373
0.088725 0.000000 0.181373
0.177451 0.000000 0.181373
0.266176 0.000000 0.181373
0.354902 0.000000 0.181373
0.443627 0.000000 0.181373
0.532353 0.000000 0.181373
0.621078 0.000000 0.181373
0.709804 0.000000 0.181373
0.000000 0.092157 0.181373
0.088725 0.092157 0.181373
0.177451 0.092157 0.181373
0.266176 0.092157 0.181373
0.354902 0.092157 0.181373
0.443627 0.092157 0.181373
0.532353 0.092157 0.181373
0.621078 0.092157 0.181373
0.709804 0.092157 0.181373
0.000000 0.184314 0.181373
0.088725 0.184314 0.181373
0.177451 0.184314 0.181373
0.266176 0.184314 0.181373
0.354902 0.184314 0.181373
0.443627 0.184314 0.181373
0.532353 0.184314 0.181373
0.621078 0.184314 0.181373
0.709804 0.184314 0.181373
0.000000 0.276471 0.181373
0.088725 0.276471 0.181373
0.177451 0.276471 0.181373
0.266176 0.276471 0.181373
0.354902 0.276471 0.181373
0.443627 0.276471 0.181373
0.532353 0.276471 0.181373
0.621078 0.276471 0.181373
0.709804 0.276471 0.181373
0.000000 0.368627 0.181373
0.088725 0.368627 0.181373
0.177451 0.368627 0.181373
0.266176 0.368627 0.181373
0.354902 0.368627 0.181373
0.443627 0.368627 0.181373
0.532353 0.368627 0.181373
0.621078 0.368627 0.181373
0.709804 0.368627 0.181373
0.000000 0.460784 0.181373
0.088725 0.460784 0.181373
0.177451 0.460784 0.181373
0.266176 0.460784 0.181373
0.354902 0.460784 0.181373
0.443627 0.460784 0.181373
0.532353 0.460784 0.181373
0.621078 0.460784 0.181373
0.709804 0.460784 0.181373
0.000000 0.552941 0.181373
0.088725 0.552941 0.181373
0.177451 0.552941 0.181373
0.266176 0.552941 0.181373
0.354902 0.552941 0.181373
0.443627 0.552941 0.181373
0.532353 0.552941 0.181373
0.621078 0.552941 0.181373
0.709804 0.552941 0.181373
0.000000 0.645098 0.181373
0.088725 0.645098 0.181373
0.177451 0.645098 0.181373
0.266176 0.645098 0.181373
0.354902 0.645098 0.181373
0.443627 0.645098 0.181373
0.532353 0.645098 0.181373
0.621078 0.645098 0.181373
0.709804 0.645098 0.181373
0.000000 0.737255 0.181373
0.088725 0.737255 0.181373
0.177451 0.737255 0.181373
0.266176 0.737255 0.181373
0.354902 0.737255 0.181373
0.443627 0.737255 0.181373
0.532353 0.737255 0.181373
0.621078 0.737255 0.181373
0.709804 0.737255 0.181373
0.000000 0.000000 0.272059
0.088725 0.000000 0.272059
0.177451 0.000000 0.272059
0.266176 0.000000 0.272059
0.354902 0.000000 0.272059
0.443627 0.000000 0.272059
0.532353 0.000000 0.272059
0.621078 0.000000 0.272059
0.709804 0.000000 0.272059
0.000000 0.092157 0.272059
0.088725 0.092157 0.272059
0.177451 0.092157 0.272059
0.266176 0.092157 0.272059
0.354902 0.092157 0.272059
0.443627 0.092157 0.272059
0.532353 0.092157 0.272059
0.621078 0.092157 0.272059
0.709804 0.092157 0.272059
0.000000 0.184314 0.272059
0.088725 0.184314 0.272059
0.177451 0.184314 0.272059
0.266176 0.184314 0.272059
0.354902 0.184314 0.272059
0.443627 0.184314 0.272059
0.532353 0.184314 0.272059
0.621078 0.184314 0.272059
0.709804 0.184314 0.272059
0.000000 0.276471 0.272059
0.088725 0.276471 0.272059
0.177451 0.276471 0.272059
0.266176 0.276471 0.272059
0.354902 0.276471 0.272059
0.443627 0.276471 0.272059
0.532353 0.276471 0.272059
0.621078 0.276471 0.272059
0.709804 0.276471 0.272059
0.000000 0.368627 0.272059
0.088725 0.368627 0.272059
0.177451 0.368627 0.272059
0.266176 0.368627 0.272059
0.354902 0.368627 0.272059
0.443627 0.368627 0.272059
0.532353 0.368627 0.272059
0.621078 0.368627 0.272059
0.709804 0.368627 0.272059
0.000000 0.460784 0.272059
0.088725 0.460784 0.272059
0.177451 0.460784 0.272059
0.266176 0.460784 0.272059
0.354902 0.460784 0.272059
0.443627 0.460784 0.272059
0.532353 0.460784 0.272059
0.621078 0.460784 0.272059
0.709804 0.460784 0.272059
0.000000 0.552941 0.272059
0.088725 0.552941 0.272059
0.177451 0.552941 0.272059
0.266176 0.552941 0.272059
0.354902 0.552941 0.272059
0.443627 0.552941 0.272059
0.532353 0.552941 0.272059
0.621078 0.552941 0.272059
0.709804 0.552941 0.272059
0.000000 0.645098 0.272059
0.088725 0.645098 0.272059
0.177451 0.645098 0.272059
0.266176 0.645098 0.272059
0.354902 0.645098 0.272059
0.443627 0.645098 0.272059
0.532353 0.645098 0.272059
0.621078 0.645098 0.272059
0.709804 0.645098 0.272059
0.000000 0.737255 0.272059
0.088725 0.737255 0.272059
0.177451 0.737255 0.272059
0.266176 0.737255 0.272059
0.354902 0.737255 0.272059
0.443627 0.737255 0.272059
0.532353 0.737255 0.272059
0.621078 0.737255 0.272059
0.709804 0.737255 0.272059
0.000000 0.000000 0.362745
0.088725 0.000000 0.362745
0.177451 0.000000 0.362745
0.266176 0.000000 0.362745
0.354902 0.000000 0.362745
0.443627 0.000000 0.362745
0.532353 0.000000 0.362745
0.621078 0.000000 0.362745
0.709804 0.000000 0.362745
0.000000 0.092157 0.362745
0.088725 0.092157 0.362745
0.177451 0.092157 0.362745
0.266176 0.092157 0.362745
0.354902 0.092157 0.362745
0.443627 0.092157 0.362745
0.532353 0.092157 0.362745
0.621078 0.092157 0.362745
0.709804 0.092157 0.362745
0.000000 0.184314 0.362745
0.088725 0.184314 0.362745
0.177451 0.184314 0.362745
0.266176 0.184314 0.362745
0.354902 0.184314 0.362745
0.443627 0.184314 0.362745
0.532353 0.184314 0.362745
0.621078 0.184314 0.362745
0.709804 0.184314 0.362745
0.000000 0.276471 0.362745
0.088725 0.276471 0.362745
0.177451 0.276471 0.362745
0.266176 0.276471 0.362745
0.354902 0.276471 0.362745
0.443627 0.276471 0.362745
0.532353 0.276471 0.362745
0.621078 0.276471 0.362745
0.709804 0.276471 0.362745
0.000000 0.368627 0.362745
0.088725 0.368627 0.362745
0.177451 0.368627 0.362745
0.266176 0.368627 0.362745
0.354902 0.368627 0.362745
0.443627 0.368627 0.362745
0.532353 0.368627 0.362745
0.621078 0.368627 0.362745
0.709804 0.368627 0.362745
0.000000 0.460784 0.362745
0.088725 0.460784 0.362745
0.177451 0.460784 0.362745
0.266176 0.460784 0.362745
0.354902 0.460784 0.362745
0.443627 0.460784 0.362745
0.532353 0.460784 0.362745
0.621078 0.460784 0.362745
0.709804 0.460784 0.362745
0.000000 0.552941 0.362745
0.088725 0.552941 0.362745
0.177451 0.552941 0.362745
0.266176 0.552941 0.362745
0.354902 0.552941 0.362745
0.443627 0.552941 0.362745
0.532353 0.552941 0.362745
0.621078 0.552941 0.362745
0.709804 0.552941 0.362745
0.000000 0.645098 0.362745
0.088725 0.645098 0.362745
0.177451 0.645098 0.362745
0.266176 0.645098 0.362745
0.354902 0.645098 0.362745
0.443627 0.645098 0.362745
0.532353 0.645098 0.362745
0.621078 0.645098 0.362745
0.709804 0.645098 0.362745
0.000000 0.737255 0.362745
0.088725 0.737255 0.362745
0.177451 0.737255 0.362745
0.266176 0.737255 0.362745
0.354902 0.737255 0.362745
0.443627 0.737255 0.362745
0.532353 0.737255 0.362745
0.621078 0.737255 0.362745
0.709804 0.737255 0.362745
0.000000 0.000000 0.453431
0.088725 0.000000 0.453431
0.177451 0.000000 0.453431
0.266176 0.000000 0.453431
0.354902 0.000000 0.453431
0.443627 0.000000 0.453431
0.532353 0.000000 0.453431
0.621078 0.000000 0.453431
0.709804 0.000000 0.453431
0.000000 0.092157 0.453431
0.088725 0.092157 0.453431
0.177451 0.092157 0.453431
0.266176 0.092157 0.453431
0.354902 0.092157 0.453431
0.443627 0.092157 0.453431
0.532353 0.092157 0.453431
0.621078 0.092157 0.453431
0.709804 0.092157 0.453431
0.000000 0.184314 0.453431
0.088725 0.184314 0.453431
0.177451 0.184314 0.453431
0.266176 0.184314 0.453431
0.354902 0.184314 0.453431
0.443627 0.184314 0.453431
0.532353 0.184314 0.453431
0.621078 0.184314 0.453431
0.709804 0.184314 0.453431
0.000000 0.276471 0.453431
0.088725 0.276471 0.453431
0.177451 0.276471 0.453431
0.266176 0.276471 0.453431
0.354902 0.276471 0.453431
0.443627 0.276471 0.453431
0.532353 0.276471 0.453431
0.621078 0.276471 0.453431
0.709804 0.276471 0.453431
0.000000 0.368627 0.453431
0.088725 0.368627 0.453431
0.177451 0.368627 0.453431
0.266176 0.368627 0.453431
0.354902 0.368627 0.453431
0.443627 0.368627 0.453431
0.532353 0.368627 0.453431
0.621078 0.368627 0.453431
0.709804 0.368627 0.453431
0.000000 0.460784 0.453431
0.088725 0.460784 0.453431
0.177451 0.460784 0.453431
0.266176 0.460784 0.453431
0.354902 0.460784 0.453431
0.443627 0.460784 0.453431
0.532353 0.460784 0.453431
0.621078 0.460784 0.453431
0.709804 0.460784 0.453431
0.000000 0.552941 0.453431
0.088725 0.552941 0.453431
0.177451 0.552941 0.453431
0.266176 0.552941 0.453431
0.354902 0.552941 0.453431
0.443627 0.552941 0.453431
0.532353 0.552941 0.453431
0.621078 0.552941 0.453431
0.709804 0.552941 0.453431
0.000000 0.645098 0.453431
0.088725 0.645098 0.453431
0.177451 0.645098 0.453431
0.266176 0.645098 0.453431
0.354902 0.645098 0.453431
0.443627 0.645098 0.453431
0.532353 0.645098 0.453431
0.621078 0.645098 0.453431
0.709804 0.645098 0.453431
0.000000 0.737255 0.453431
0.088725 0.737255 0.453431
0.177451 0.737255 0.453431
0.266176 0.737255 0.453431
0.354902 0.737255 0.453431
0.443627 0.737255 0.453431
0.532353 0.737255 0.453431
0.621078 0.737255 0.453431
0.709804 0.737255 0.453431
0.000000 0.000000 0.544118
0.088725 0.000000 0.544118
0.177451 0.000000 0.544118
0.266176 0.000000 0.544118
0.354902 0.000000 0.544118
0.443627 0.000000 0.544118
0.532353 0.000000 0.544118
0.621078 0.000000 0.544118
0.709804 0.000000 0.544118
0.000000 0.092157 0.544118
0.088725 0.092157 0.544118
0.177451 0.092157 0.544118
0.266176 0.092157 0.544118
0.354902 0.092157 0.544118
0.443627 0.092157 0.544118
0.532353 0.092157 0.544118
0.621078 0.092157 0.544118
0.709804 0.092157 0.544118
0.000000 0.184314 0.544118
0.088725 0.184314 0.544118
0.177451 0.184314 0.544118
0.266176 0.184314 0.544118
0.354902 0.184314 0.544118
0.443627 0.184314 0.544118
0.532353 0.184314 0.544118
0.621078 0.184314 0.544118
0.709804 0.184314 0.544118
0.000000 0.276471 0.544118
0.088725 0.276471 0.544118
0.177451 0.276471 0.544118
0.266176 0.276471 0.544118
0.354902 0.276471 0.544118
0.443627 0.276471 0.544118
0.532353 0.276471 0.544118
0.621078 0.276471 0.544118
0.709804 0.276471 0.544118
0.000000 0.368627 0.544118
0.088725 0.368627 0.544118
0.177451 0.368627 0.544118
0.266176 0.368627 0.544118
0.354902 0.368627 0.544118
0.443627 0.368627 0.544118
0.532353 0.368627 0.544118
0.621078 0.368627 0.544118
0.709804 0.368627 0.544118
0.000000 0.460784 0.544118
0.088725 0.460784 0.544118
0.177451 0.460784 0.544118
0.266176 0.460784 0.544118
0.354902 0.460784 0.544118
0.443627 0.460784 0.544118
0.532353 0.460784 0.544118
0.621078 0.460784 0.544118
0.709804 0.460784 0.544118
0.000000 0.552941 0.544118
0.088725 0.552941 0.544118
0.177451 0.552941 0.544118
0.266176 0.552941 0.544118
0.354902 0.552941 0.544118
0.443627 0.552941 0.544118
0.532353 0.552941 0.544118
0.621078 0.552941 0.544118
0.709804 0.552941 0.544118
0.000000 0.645098 0.544118
0.088725 0.645098 0.544118
0.177451 0.645098 0.544118
0.266176 0.645098 0.544118
0.354902 0.645098 0.544118
0.443627 0.645098 0.544118
0.532353 0.645098 0.544118
0.621078 0.645098 0.544118
0.709804 0.645098 0.544118
0.000000 0.737255 0.544118
0.088725 0.737255 0.544118
0.177451 0.737255 0.544118
0.266176 0.737255 0.544118
0.354902 0.737255 0.544118
0.443627 0.737255 0.544118
0.532353 0.737255 0.544118
0.621078 0.737255 0.544118
0.709804 0.737255 0.544118
0.000000 0.000000 0.634804
0.088725 0.000000 0.634804
0.177451 0.000000 0.634804
0.266176 0.000000 0.634804
0.354902 0.000000 0.634804
0.443627 0.000000 0.634804
0.532353 0.000000 0.634804
0.621078 0.000000 0.634804
0.709804 0.000000 0.634804
0.000000 0.092157 0.634804
0.088725 0.092157 0.634804
0.177451 0.092157 0.634804
0.266176 0.092157 0.634804
0.354902 0.092157 0.634804
0.443627 0.092157 0.634804
0.532353 0.092157 0.634804
0.621078 0.092157 0.634804
0.709804 0.092157 0.634804
0.000000 0.184314 0.634804
0.088725 0.184314 0.634804
0.177451 0.184314 0.634804
0.266176 0.184314 0.634804
0.354902 0.184314 0.634804
0.443627 0.184314 0.634804
0.532353 0.184314 0.634804
0.621078 0.184314 0.634804
0.709804 0.184314 0.634804
0.000000 0.276471 0.634804
0.088725 0.276471 0.634804
0.177451 0.276471 0.634804
0.266176 0.276471 0.634804
0.354902 0.276471 0.634804
0.443627 0.276471 0.634804
0.532353 0.276471 0.634804
0.621078 0.276471 0.634804
0.709804 0.276471 0.634804
0.000000 0.368627 0.634804
0.088725 0.368627 0.634804
0.177451 0.368627 0.634804
0.266176 0.368627 0.634804
0.354902 0.368627 0.634804
0.443627 0.368627 0.634804
0.532353 0.368627 0.634804
0.621078 0.368627 0.634804
0.709804 0.368627 0.634804
0.000000 0.460784 0.634804
0.088725 0.460784 0.634804
0.177451 0.460784 0.634804
0.266176 0.460784 0.634804
0.354902 0.460784 0.634804
0.443627 0.460784 0.634804
0.532353 0.460784 0.634804
0.621078 0.460784 0.634804
0.709804 0.460784 0.634804
0.000000 0.552941 0.634804
0.088725 0.552941 0.634804
0.177451 0.552941 0.634804
0.266176 0.552941 0.634804
0.354902 0.552941 0.634804
0.443627 0.552941 0.634804
0.532353 0.552941 0.634804
0.621078 0.552941 0.634804
0.709804 0.552941 0.634804
0.000000 0.645098 0.634804
0.088725 0.645098 0.634804
0.177451 0.645098 0.634804
0.266176 0.645098 0.634804
0.354902 0.645098 0.634804
0.443627 0.645098 0.634804
0.532353 0.645098 0.634804
0.621078 0.645098 0.634804
0.709804 0.645098 0.634804
0.000000 0.737255 0.634804
0.088725 0.737255 0.634804
0.177451 0.737255 0.634804
0.266176 0.737255 0.634804
0.354902 0.737255 0.634804
0.443627 0.737255 0.634804
0.532353 0.737255 0.634804
0.621078 0.737255 0.634804
0.709804 0.737255 0.634804
0.000000 0.000000 0.725490
0.088725 0.000000 0.725490
0.177451 0.000000 0.725490
0.266176 0.000000 0.725490
0.354902 0.000000 0.725490
0.443627 0.000000 0.725490
0.532353 0.000000 0.725490
0.621078 0.000000 0.725490
0.709804 0.000000 0.725490
0.000000 0.092157 0.725490
0.088725 0.092157 0.725490
0.177451 0.092157 0.725490
0.266176 0.092157 0.725490
0.354902 0.092157 0.725490
0.443627 0.092157 0.725490
0.532353 0.092157 0.725490
0.621078 0.092157 0.725490
0.709804 0.092157 0.725490
0.000000 0.184314 0.725490
0.088725 0.184314 0.725490
0.177451 0.184314 0.725490
0.266176 0.184314 0.725490
0.354902 0.184314 0.725490
0.443627 0.184314 0.725490
0.532353 0.184314 0.725490
0.621078 0.184314 0.725490
0.709804 0.184314 0.725490
0.000000 0.276471 0.725490
0.088725 0.276471 0.725490
0.177451 0.276471 0.725490
0.266176 0.276471 0.725490
0.354902 0.276471 0.725490
0.443627 0.276471 0.725490
0.532353 0.276471 0.725490
0.621078 0.276471 0.725490
0.709804 0.276471 0.725490
0.000000 0.368627 0.725490
0.088725 0.368627 0.725490
0.177451 0.368627 0.725490
0.266176 0.368627 0.725490
0.354902 0.368627 0.725490
0.443627 0.368627 0.725490
0.532353 0.368627 0.725490
0.621078 0.368627 0.725490
0.709804 0.368627 0.725490
0.000000 0.460784 0.725490
0.088725 0.460784 0.725490
0.177451 0.460784 0.725490
0.266176 0.460784 0.725490
0.354902 0.460784 0.725490
0.443627 0.460784 0.725490
0.532353 0.460784 0.725490
0.621078 0.460784 0.725490
0.709804 0.460784 0.725490
0.000000 0.552941 0.725490
0.088725 0.552941 0.725490
0.177451 0.552941 0.725490
0.266176 0.552941 0.725490
0.354902 0.552941 0.725490
0.443627 0.552941 0.725490
0.532353 0.552941 0.725490
0.621078 0.552941 0.725490
0.709804 0.552941 0.725490
0.000000 0.645098 0.725490
0.088725 0.645098 0.725490
0.177451 0.645098 0.725490
0.266176 0.645098 0.725490
0.354902 0.645098 0.725490
0.443627 0.645098 0.725490
0.532353 0.645098 0.725490
0.621078 0.645098 0.725490
0.709804 0.645098 0.725490
0.000000 0.737255 0.725490
0.088725 0.737255 0.725490
0.177451 0.737255 0.725490
0.266176 0.737255 0.725490
0.354902 0.737255 0.725490
0.443627 0.737255 0.725490
0.532353 0.737255 0.725490
0.621078 0.737255 0.725490
0.709804 0.737255 0.725490
