backend/lut_exports/2d0c6af355814468a8dcbb510b02824a.cube
TITLE "PresetForge Generated LUT"
LUT_3D_SIZE 9
DOMAIN_MIN 0.0 0.0 0.0
DOMAIN_MAX 1.0 1.0 1.0
0.000000 0.000000 0.000000
0.023529 0.000000 0.000000
0.047059 0.000000 0.000000
0.070588 0.000000 0.000000
0.094118 0.000000 0.000000
0.117647 0.000000 0.000000
0.141176 0.000000 0.000000
0.164706 0.000000 0.000000
0.188235 0.000000 0.000000
0.000000 0.018137 0.000000
0.023529 0.018137 0.000000
0.047059 0.018137 0.000000
0.070588 0.018137 0.000000
0.094118 0.018137 0.000000
0.117647 0.018137 0.000000
0.141176 0.018137 0.000000
0.164706 0.018137 0.000000
0.188235 0.018137 0.000000
0.000000 0.036275 0.000000
0.023529 0.036275 0.000000
0.047059 0.036275 0.000000
0.070588 0.036275 0.000000
0.094118 0.036275 0.000000
0.117647 0.036275 0.000000
0.141176 0.036275 0.000000
0.164706 0.036275 0.000000
0.188235 0.036275 0.000000
0.000000 0.054412 0.000000
0.023529 0.054412 0.000000
0.047059 0.054412 0.000000
0.070588 0.054412 0.000000
0.094118 0.054412 0.000000
0.117647 0.054412 0.000000
0.141176 0.054412 0.000000
0.164706 0.054412 0.000000
0.188235 0.054412 0.000000
0.000000 0.072549 0.000000
0.023529 0.072549 0.000000
0.047059 0.072549 0.000000
0.070588 0.072549 0.000000
0.094118 0.072549 0.000000
0.117647 0.072549 0.000000
0.141176 0.072549 0.000000
0.164706 0.072549 0.000000
0.188235 0.072549 0.000000
0.000000 0.090686 0.000000
0.023529 0.090686 0.000000
0.047059 0.090686 0.000000
0.070588 0.090686 0.000000
0.094118 0.090686 0.000000
0.117647 0.090686 0.000000
0.141176 0.090686 0.000000
0.164706 0.090686 0.000000
0.188235 0.090686 0.000000
0.000000 0.108824 0.000000
0.023529 0.108824 0.000000
0.047059 0.108824 0.000000
0.070588 0.108824 0.000000
0.094118 0.108824 0.000000
0.117647 0.108824 0.000000
0.141176 0.108824 0.000000
0.164706 0.108824 0.000000
0.188235 0.108824 0.000000
0.000000 0.126961 0.000000
0.023529 0.126961 0.000000
0.047059 0.126961 0.000000
0.070588 0.126961 0.000000
0.094118 0.126961 0.000000
0.117647 0.126961 0.000000
0.141176 0.126961 0.000000
0.164706 0.126961 0.000000
0.188235 0.126961 0.000000
0.000000 0.145098 0.000000
0.023529 0.145098 0.000000
0.047059 0.145098 0.000000
0.070588 0.145098 0.000000
0.094118 0.145098 0.000000
0.117647 0.145098 0.000000
0.141176 0.145098 0.000000
0.164706 0.145098 0.000000
0.188235 0.145098 0.000000
0.000000 0.000000 0.010784
0.023529 0.000000 0.010784
0.047059 0.000000 0.010784
0.070588 0.000000 0.010784
0.094118 0.000000 0.010784
0.117647 0.000000 0.010784
0.141176 0.000000 0.010784
0.164706 0.000000 0.010784
0.188235 0.000000 0.010784
0.000000 0.018137 0.010784
0.023529 0.018137 0.010784
0.047059 0.018137 0.010784
0.070588 0.018137 0.010784
0.094118 0.018137 0.010784
0.117647 0.018137 0.010784
0.141176 0.018137 0.010784
0.164706 0.018137 0.010784
0.188235 0.018137 0.010784
0.000000 0.036275 0.010784
0.023529 0.036275 0.010784
0.047059 0.036275 0.010784
0.070588 0.036275 0.010784
0.094118 0.036275 0.010784
0.117647 0.036275 0.010784
0.141176 0.036275 0.010784
0.164706 0.036275 0.010784
0.188235 0.036275 0.010784
0.000000 0.054412 0.010784
0.023529 0.054412 0.010784
0.047059 0.054412 0.010784
0.070588 0.054412 0.010784
0.094118 0.054412 0.010784
0.117647 0.054412 0.010784
0.141176 0.054412 0.010784
0.164706 0.054412 0.010784
0.188235 0.054412 0.010784
0.000000 0.072549 0.010784
0.023529 0.072549 0.010784
0.047059 0.072549 0.010784
0.070588 0.072549 0.010784
0.094118 0.072549 0.010784
0.117647 0.072549 0.010784
0.141176 0.072549 0.010784
0.164706 0.072549 0.010784
0.188235 0.072549 0.010784
0.000000 0.090686 0.010784
0.023529 0.090686 0.010784
0.047059 0.090686 0.010784
0.070588 0.090686 0.010784
0.094118 0.090686 0.010784
0.117647 0.090686 0.010784
0.141176 0.090686 0.010784
0.164706 0.090686 0.010784
0.188235 0.090686 0.010784
0.000000 0.108824 0.010784
0.023529 0.108824 0.010784
0.047059 0.108824 0.010784
0.070588 0.108824 0.010784
0.094118 0.108824 0.010784
0.117647 0.108824 0.010784
0.141176 0.108824 0.010784
0.164706 0.108824 0.010784
0.188235 0.108824 0.010784
0.000000 0.126961 0.010784
0.023529 0.126961 0.010784
0.047059 0.126961 0.010784
0.070588 0.126961 0.010784
0.094118 0.126961 0.010784
0.117647 0.126961 0.010784
0.141176 0.126961 0.010784
0.164706 0.126961 0.010784
0.188235 0.126961 0.010784
0.000000 0.145098 0.010784
0.023529 0.145098 0.010784
0.047059 0.145098 0.010784
0.070588 0.145098 0.010784
0.094118 0.145098 0.010784
0.117647 0.145098 0.010784
0.141176 0.145098 0.010784
0.164706 0.145098 0.010784
0.188235 0.145098 0.010784
0.000000 0.000000 0.021569
0.023529 0.000000 0.021569
0.047059 0.000000 0.021569
0.070588 0.000000 0.021569
0.094118 0.000000 0.021569
0.117647 0.000000 0.021569
0.141176 0.000000 0.021569
0.164706 0.000000 0.021569
0.188235 0.000000 0.021569
0.000000 0.018137 0.021569
0.023529 0.018137 0.021569
0.047059 0.018137 0.021569
0.070588 0.018137 0.021569
0.094118 0.018137 0.021569
0.117647 0.018137 0.021569
0.141176 0.018137 0.021569
0.164706 0.018137 0.021569
0.188235 0.018137 0.021569
0.000000 0.036275 0.021569
0.023529 0.036275 0.021569
0.047059 0.036275 0.021569
0.070588 0.036275 0.021569
0.094118 0.036275 0.021569
0.117647 0.036275 0.021569
0.141176 0.036275 0.021569
0.164706 0.036275 0.021569
0.188235 0.036275 0.021569
0.000000 0.054412 0.021569
0.023529 0.054412 0.021569
0.047059 0.054412 0.021569
0.070588 0.054412 0.021569
0.094118 0.054412 0.021569
0.117647 0.054412 0.021569
0.141176 0.054412 0.021569
0.164706 0.054412 0.021569
0.188235 0.054412 0.021569
0.000000 0.072549 0.021569
0.023529 0.072549 0.021569
0.047059 0.072549 0.021569
0.070588 0.072549 0.021569
0.094118 0.072549 0.021569
0.117647 0.072549 0.021569
0.141176 0.072549 0.021569
0.164706 0.072549 0.021569
0.188235 0.072549 0.021569
0.000000 0.090686 0.021569
0.023529 0.090686 0.021569
0.047059 0.090686 0.021569
0.070588 0.090686 0.021569
0.094118 0.090686 0.021569
0.117647 0.090686 0.021569
0.141176 0.090686 0.021569
0.164706 0.090686 0.021569
0.188235 0.090686 0.021569
0.000000 0.108824 0.021569
0.023529 0.108824 0.021569
0.047059 0.108824 0.021569
0.070588 0.108824 0.021569
0.094118 0.108824 0.021569
0.117647 0.108824 0.021569
0.141176 0.108824 0.021569
0.164706 0.108824 0.021569
0.188235 0.108824 0.021569
0.000000 0.126961 0.021569
0.023529 0.126961 0.021569
0.047059 0.126961 0.021569
0.070588 0.126961 0.021569
0.094118 0.126961 0.021569
0.117647 0.126961 0.021569
0.141176 0.126961 0.021569
0.164706 0.126961 0.021569
0.188235 0.126961 0.021569
0.000000 0.145098 0.021569
0.023529 0.145098 0.021569
0.047059 0.145098 0.021569
0.070588 0.145098 0.021569
0.094118 0.145098 0.021569
0.117647 0.145098 0.021569
0.141176 0.145098 0.021569
0.164706 0.145098 0.021569
0.188235 0.145098 0.021569
0.000000 0.000000 0.032353
0.023529 0.000000 0.032353
0.047059 0.000000 0.032353
0.070588 0.000000 0.032353
0.094118 0.000000 0.032353
0.117647 0.000000 0.032353
0.141176 0.000000 0.032353
0.164706 0.000000 0.032353
0.188235 0.000000 0.032353
0.000000 0.018137 0.032353
0.023529 0.018137 0.032353
0.047059 0.018137 0.032353
0.070588 0.018137 0.032353
0.094118 0.018137 0.032353
0.117647 0.018137 0.032353
0.141176 0.018137 0.032353
0.164706 0.018137 0.032353
0.188235 0.018137 0.032353
0.000000 0.036275 0.032353
0.023529 0.036275 0.032353
0.047059 0.036275 0.032353
0.070588 0.036275 0.032353
0.094118 0.036275 0.032353
0.117647 0.036275 0.032353
0.141176 0.036275 0.032353
0.164706 0.036275 0.032353
0.188235 0.036275 0.032353
0.000000 0.054412 0.032353
0.023529 0.054412 0.032353
0.047059 0.054412 0.032353
0.070588 0.054412 0.032353
0.094118 0.054412 0.032353
0.117647 0.054412 0.032353
0.141176 0.054412 0.032353
0.164706 0.054412 0.032353
0.188235 0.054412 0.032353
0.000000 0.072549 0.032353
0.023529 0.072549 0.032353
0.047059 0.072549 0.032353
0.070588 0.072549 0.032353
0.094118 0.072549 0.032353
0.117647 0.072549 0.032353
0.141176 0.072549 0.032353
0.164706 0.072549 0.032353
0.188235 0.072549 0.032353
0.000000 0.090686 0.032353
0.023529 0.090686 0.032353
0.047059 0.090686 0.032353
0.070588 0.090686 0.032353
0.094118 0.090686 0.032353
0.117647 0.090686 0.032353
0.141176 0.090686 0.032353
0.164706 0.090686 0.032353
0.188235 0.090686 0.032353
0.000000 0.108824 0.032353
0.023529 0.108824 0.032353
0.047059 0.108824 0.032353
0.070588 0.108824 0.032353
0.094118 0.108824 0.032353
0.117647 0.108824 0.032353
0.141176 0.108824 0.032353
0.164706 0.108824 0.032353
0.188235 0.108824 0.032353
0.000000 0.126961 0.032353
0.023529 0.126961 0.032353
0.047059 0.126961 0.032353
0.070588 0.126961 0.032353
0.094118 0.126961 0.032353
0.117647 0.126961 0.032353
0.141176 0.126961 0.032353
0.164706 0.126961 0.032353
0.188235 0.126961 0.032353
0.000000 0.145098 0.032353
0.023529 0.145098 0.032353
0.047059 0.145098 0.032353
0.070588 0.145098 0.032353
0.094118 0.145098 0.032353
0.117647 0.145098 0.032353
0.141176 0.145098 0.032353
0.164706 0.145098 0.032353
0.188235 0.145098 0.032353
0.000000 0.000000 0.043137
0.023529 0.000000 0.043137
0.047059 0.000000 0.043137
0.070588 0.000000 0.043137
0.094118 0.000000 0.043137
0.117647 0.000000 0.043137
0.141176 0.000000 0.043137
0.164706 0.000000 0.043137
0.188235 0.000000 0.043137
0.000000 0.018137 0.043137
0.023529 0.018137 0.043137
0.047059 0.018137 0.043137
0.070588 0.018137 0.043137
0.094118 0.018137 0.043137
0.117647 0.018137 0.043137
0.141176 0.018137 0.043137
0.164706 0.018137 0.043137
0.188235 0.018137 0.043137
0.000000 0.036275 0.043137
0.023529 0.036275 0.043137
0.047059 0.036275 0.043137
0.070588 0.036275 0.043137
0.094118 0.036275 0.043137
0.117647 0.036275 0.043137
0.141176 0.036275 0.043137
0.164706 0.036275 0.043137
0.188235 0.036275 0.043137
0.000000 0.054412 0.043137
0.023529 0.054412 0.043137
0.047059 0.054412 0.043137
0.070588 0.054412 0.043137
0.094118 0.054412 0.043137
0.117647 0.054412 0.043137
0.141176 0.054412 0.043137
0.164706 0.054412 0.043137
0.188235 0.054412 0.043137
0.000000 0.072549 0.043137
0.023529 0.072549 0.043137
0.047059 0.072549 0.043137
0.070588 0.072549 0.043137
0.094118 0.072549 0.043137
0.117647 0.072549 0.043137
0.141176 0.072549 0.043137
0.164706 0.072549 0.043137
0.188235 0.072549 0.043137
0.000000 0.090686 0.043137
0.023529 0.090686 0.043137
0.047059 0.090686 0.043137
0.070588 0.090686 0.043137
0.094118 0.090686 0.043137
0.117647 0.090686 0.043137
0.141176 0.090686 0.043137
0.164706 0.090686 0.043137
0.188235 0.090686 0.043137
0.000000 0.108824 0.043137
0.023529 0.108824 0.043137
0.047059 0.108824 0.043137
0.070588 0.108824 0.043137
0.094118 0.108824 0.043137
0.117647 0.108824 0.043137
0.141176 0.108824 0.043137
0.164706 0.108824 0.043137
0.188235 0.108824 0.043137
0.000000 0.126961 0.043137
0.023529 0.126961 0.043137
0.047059 0.126961 0.043137
0.070588 0.126961 0.043137
0.094118 0.126961 0.043137
0.117647 0.126961 0.043137
0.141176 0.126961 0.043137
0.164706 0.126961 0.043137
0.188235 0.126961 0.043137
0.000000 0.145098 0.043137
0.023529 0.145098 0.043137
0.047059 0.145098 0.043137
0.070588 0.145098 0.043137
0.094118 0.145098 0.043137
0.117647 0.145098 0.043137
0.141176 0.145098 0.043137
0.164706 0.145098 0.043137
0.188235 0.145098 0.043137
0.000000 0.000000 0.053922
0.023529 0.000000 0.053922
0.047059 0.000000 0.053922
0.070588 0.000000 0.053922
0.094118 0.000000 0.053922
0.117647 0.000000 0.053922
0.141176 0.000000 0.053922
0.164706 0.000000 0.053922
0.188235 0.000000 0.053922
0.000000 0.018137 0.053922
0.023529 0.018137 0.053922
0.047059 0.018137 0.053922
0.070588 0.018137 0.053922
0.094118 0.018137 0.053922
0.117647 0.018137 0.053922
0.141176 0.018137 0.053922
0.164706 0.018137 0.053922
0.188235 0.018137 0.053922
0.000000 0.036275 0.053922
0.023529 0.036275 0.053922
0.047059 0.036275 0.053922
0.070588 0.036275 0.053922
0.094118 0.036275 0.053922
0.117647 0.036275 0.053922
0.141176 0.036275 0.053922
0.164706 0.036275 0.053922
0.188235 0.036275 0.053922
0.000000 0.054412 0.053922
0.023529 0.054412 0.053922
0.047059 0.054412 0.053922
0.070588 0.054412 0.053922
0.094118 0.054412 0.053922
0.117647 0.054412 0.053922
0.141176 0.054412 0.053922
0.164706 0.054412 0.053922
0.188235 0.054412 0.053922
0.000000 0.072549 0.053922
0.023529 0.072549 0.053922
0.047059 0.072549 0.053922
0.070588 0.072549 0.053922
0.094118 0.072549 0.053922
0.117647 0.072549 0.053922
0.141176 0.072549 0.053922
0.164706 0.072549 0.053922
0.188235 0.072549 0.053922
0.000000 0.090686 0.053922
0.023529 0.090686 0.053922
0.047059 0.090686 0.053922
0.070588 0.090686 0.053922
0.094118 0.090686 0.053922
0.117647 0.090686 0.053922
0.141176 0.090686 0.053922
0.164706 0.090686 0.053922
0.188235 0.090686 0.053922
0.000000 0.108824 0.053922
0.023529 0.108824 0.053922
0.047059 0.108824 0.053922
0.070588 0.108824 0.053922
0.094118 0.108824 0.053922
0.117647 0.108824 0.053922
0.141176 0.108824 0.053922
0.164706 0.108824 0.053922
0.188235 0.108824 0.053922
0.000000 0.126961 0.053922
0.023529 0.126961 0.053922
0.047059 0.126961 0.053922
0.070588 0.126961 0.053922
0.094118 0.126961 0.053922
0.117647 0.126961 0.053922
0.141176 0.126961 0.053922
0.164706 0.126961 0.053922
0.188235 0.126961 0.053922
0.000000 0.145098 0.053922
0.023529 0.145098 0.053922
0.047059 0.145098 0.053922
0.070588 0.145098 0.053922
0.094118 0.145098 0.053922
0.117647 0.145098 0.053922
0.141176 0.145098 0.053922
0.164706 0.145098 0.053922
0.188235 0.145098 0.053922
0.000000 0.000000 0.064706
0.023529 0.000000 0.064706
0.047059 0.000000 0.064706
0.070588 0.000000 0.064706
0.094118 0.000000 0.064706
0.117647 0.000000 0.064706
0.141176 0.000000 0.064706
0.164706 0.000000 0.064706
0.188235 0.000000 0.064706
0.000000 0.018137 0.064706
0.023529 0.018137 0.064706
0.047059 0.018137 0.064706
0.070588 0.018137 0.064706
0.094118 0.018137 0.064706
0.117647 0.018137 0.064706
0.141176 0.018137 0.064706
0.164706 0.018137 0.064706
0.188235 0.018137 0.064706
0.000000 0.036275 0.064706
0.023529 0.036275 0.064706
0.047059 0.036275 0.064706
0.070588 0.036275 0.064706
0.094118 0.036275 0.064706
0.117647 0.036275 0.064706
0.141176 0.036275 0.064706
0.164706 0.036275 0.064706
0.188235 0.036275 0.064706
0.000000 0.054412 0.064706
0.023529 0.054412 0.064706
0.047059 0.054412 0.064706
0.070588 0.054412 0.064706
0.094118 0.054412 0.064706
0.117647 0.054412 0.064706
0.141176 0.054412 0.064706
0.164706 0.054412 0.064706
0.188235 0.054412 0.064706
0.000000 0.072549 0.064706
0.023529 0.072549 0.064706
0.047059 0.072549 0.064706
0.070588 0.072549 0.064706
0.094118 0.072549 0.064706
0.117647 0.072549 0.064706
0.141176 0.072549 0.064706
0.164706 0.072549 0.064706
0.188235 0.072549 0.064706
0.000000 0.090686 0.064706
0.023529 0.090686 0.064706
0.047059 0.090686 0.064706
0.070588 0.090686 0.064706
0.094118 0.090686 0.064706
0.117647 0.090686 0.064706
0.141176 0.090686 0.064706
0.164706 0.090686 0.064706
0.188235 0.090686 0.064706
0.000000 0.108824 0.064706
0.023529 0.108824 0.064706
0.047059 0.108824 0.064706
0.070588 0.108824 0.064706
0.094118 0.108824 0.064706
0.117647 0.108824 0.064706
0.141176 0.108824 0.064706
0.164706 0.108824 0.064706
0.188235 0.108824 0.064706
0.000000 0.126961 0.064706
0.023529 0.126961 0.064706
0.047059 0.126961 0.064706
0.070588 0.126961 0.064706
0.094118 0.126961 0.064706
0.117647 0.126961 0.064706
0.141176 0.126961 0.064706
0.164706 0.126961 0.064706
0.188235 0.126961 0.064706
0.000000 0.145098 0.064706
0.023529 0.145098 0.064706
0.047059 0.145098 0.064706
0.070588 0.145098 0.064706
0.094118 0.145098 0.064706
0.117647 0.145098 0.064706
0.141176 0.145098 0.064706
0.164706 0.145098 0.064706
0.188235 0.145098 0.064706
0.000000 0.000000 0.075490
0.023529 0.000000 0.075490
0.047059 0.000000 0.075490
0.070588 0.000000 0.075490
0.094118 0.000000 0.075490
0.117647 0.000000 0.075490
0.141176 0.000000 0.075490
0.164706 0.000000 0.075490
0.188235 0.000000 0.075490
0.000000 0.018137 0.075490
0.023529 0.018137 0.075490
0.047059 0.018137 0.075490
0.070588 0.018137 0.075490
0.094118 0.018137 0.075490
0.117647 0.018137 0.075490
0.141176 0.018137 0.075490
0.164706 0.018137 0.075490
0.188235 0.018137 0.075490
0.000000 0.036275 0.075490
0.023529 0.036275 0.075490
0.047059 0.036275 0.075490
0.070588 0.036275 0.075490
0.094118 0.036275 0.075490
0.117647 0.036275 0.075490
0.141176 0.036275 0.075490
0.164706 0.036275 0.075490
0.188235 0.036275 0.075490
0.000000 0.054412 0.075490
0.023529 0.054412 0.075490
0.047059 0.054412 0.075490
0.070588 0.054412 0.075490
0.094118 0.054412 0.075490
0.117647 0.054412 0.075490
0.141176 0.054412 0.075490
0.164706 0.054412 0.075490
0.188235 0.054412 0.075490
0.000000 0.072549 0.075490
0.023529 0.072549 0.075490
0.047059 0.072549 0.075490
0.070588 0.072549 0.075490
0.094118 0.072549 0.075490
0.117647 0.072549 0.075490
0.141176 0.072549 0.075490
0.164706 0.072549 0.075490
0.188235 0.072549 0.075490
0.000000 0.090686 0.075490
0.023529 0.090686 0.075490
0.047059 0.090686 0.075490
0.070588 0.090686 0.075490
0.094118 0.090686 0.075490
0.117647 0.090686 0.075490
0.141176 0.090686 0.075490
0.164706 0.090686 0.075490
0.188235 0.090686 0.075490
0.000000 0.108824 0.075490
0.023529 0.108824 0.075490
0.047059 0.108824 0.075490
0.070588 0.108824 0.075490
0.094118 0.108824 0.075490
0.117647 0.108824 0.075490
0.141176 0.108824 0.075490
0.164706 0.108824 0.075490
0.188235 0.108824 0.075490
0.000000 0.126961 0.075490
0.023529 0.126961 0.075490
0.047059 0.126961 0.075490
0.070588 0.126961 0.075490
0.094118 0.126961 0.075490
0.117647 0.126961 0.075490
0.141176 0.126961 0.075490
0.164706 0.126961 0.075490
0.188235 0.126961 0.075490
0.000000 0.145098 0.075490
0.023529 0.145098 0.075490
0.047059 0.145098 0.075490
0.070588 0.145098 0.075490
0.094118 0.145098 0.075490
0.117647 0.145098 0.075490
0.141176 0.145098 0.075490
0.164706 0.145098 0.075490
0.188235 0.145098 0.075490
0.000000 0.000000 0.086275
0.023529 0.000000 0.086275
0.047059 0.000000 0.086275
0.070588 0.000000 0.086275
0.094118 0.000000 0.086275
0.117647 0.000000 0.086275
0.141176 0.000000 0.086275
0.164706 0.000000 0.086275
0.188235 0.000000 0.086275
0.000000 0.018137 0.086275
0.023529 0.018137 0.086275
0.047059 0.018137 0.086275
0.070588 0.018137 0.086275
0.094118 0.018137 0.086275
0.117647 0.018137 0.086275
0.141176 0.018137 0.086275
0.164706 0.018137 0.086275
0.188235 0.018137 0.086275
0.000000 0.036275 0.086275
0.023529 0.036275 0.086275
0.047059 0.036275 0.086275
0.070588 0.036275 0.086275
0.094118 0.036275 0.086275
0.117647 0.036275 0.086275
0.141176 0.036275 0.086275
0.164706 0.036275 0.086275
0.188235 0.036275 0.086275
0.000000 0.054412 0.086275
0.023529 0.054412 0.086275
0.047059 0.054412 0.086275
0.070588 0.054412 0.086275
0.094118 0.054412 0.086275
0.117647 0.054412 0.086275
0.141176 0.054412 0.086275
0.164706 0.054412 0.086275
0.188235 0.054412 0.086275
0.000000 0.072549 0.086275
0.023529 0.072549 0.086275
0.047059 0.072549 0.086275
0.070588 0.072549 0.086275
0.094118 0.072549 0.086275
0.117647 0.072549 0.086275
0.141176 0.072549 0.086275
0.164706 0.072549 0.086275
0.188235 0.072549 0.086275
0.000000 0.090686 0.086275
0.023529 0.090686 0.086275
0.047059 0.090686 0.086275
0.070588 0.090686 0.086275
0.094118 0.090686 0.086275
0.117647 0.090686 0.086275
0.141176 0.090686 0.086275
0.164706 0.090686 0.086275
0.188235 0.090686 0.086275
0.000000 0.108824 0.086275
0.023529 0.108824 0.086275
0.047059 0.108824 0.086275
0.070588 0.108824 0.086275
0.094118 0.108824 0.086275
0.117647 0.108824 0.086275
0.141176 0.108824 0.086275
0.164706 0.108824 0.086275
0.188235 0.108824 0.086275
0.000000 0.126961 0.086275
0.023529 0.126961 0.086275
0.047059 0.126961 0.086275
0.070588 0.126961 0.086275
0.094118 0.126961 0.086275
0.117647 0.126961 0.086275
0.141176 0.126961 0.086275
0.164706 0.126961 0.086275
0.188235 0.126961 0.086275
0.000000 0.145098 0.086275
0.023529 0.145098 0.086275
0.047059 0.145098 0.086275
0.070588 0.145098 0.086275
0.094118 0.145098 0.086275
0.117647 0.145098 0.086275
0.141176 0.145098 0.086275
0.164706 0.145098 0.086275
0.188235 0.145098 0.086275
