backend/lut_exports/2d0c6af355814468a8dcbb510b02824a.cube
TITLE "PresetForge Generated LUT"
LUT_3D_SIZE 5
DOMAIN_MIN 0.0 0.0 0.0
DOMAIN_MAX 1.0 1.0 1.0
0.000000 0.000000 0.000000
0.047059 0.000000 0.000000
0.094118 0.000000 0.000000
0.141176 0.000000 0.000000
0.188235 0.000000 0.000000
0.000000 0.036275 0.000000
0.047059 0.036275 0.000000
0.094118 0.036275 0.000000
0.141176 0.036275 0.000000
0.188235 0.036275 0.000000
0.000000 0.072549 0.000000
0.047059 0.072549 0.000000
0.094118 0.072549 0.000000
0.141176 0.072549 0.000000
0.188235 0.072549 0.000000
0.000000 0.108824 0.000000
0.047059 0.108824 0.000000
0.094118 0.108824 0.000000
0.141176 0.108824 0.000000
0.188235 0.108824 0.000000
0.000000 0.145098 0.000000
0.047059 0.145098 0.000000
0.094118 0.145098 0.000000
0.141176 0.145098 0.000000
0.188235 0.145098 0.000000
0.000000 0.000000 0.021569
0.047059 0.000000 0.021569
0.094118 0.000000 0.021569
0.141176 0.000000 0.021569
0.188235 0.000000 0.021569
0.000000 0.036275 0.021569
0.047059 0.036275 0.021569
0.094118 0.036275 0.021569
0.141176 0.036275 0.021569
0.188235 0.036275 0.021569
0.000000 0.072549 0.021569
0.047059 0.072549 0.021569
0.094118 0.072549 0.021569
0.141176 0.072549 0.021569
0.188235 0.072549 0.021569
0.000000 0.108824 0.021569
0.047059 0.108824 0.021569
0.094118 0.108824 0.021569
0.141176 0.108824 0.021569
0.188235 0.108824 0.021569
0.000000 0.145098 0.021569
0.047059 0.145098 0.021569
0.094118 0.145098 0.021569
0.141176 0.145098 0.021569
0.188235 0.145098 0.021569
0.000000 0.000000 0.043137
0.047059 0.000000 0.043137
0.094118 0.000000 0.043137
0.141176 0.000000 0.043137
0.188235 0.000000 0.043137
0.000000 0.036275 0.043137
0.047059 0.036275 0.043137
0.094118 0.036275 0.043137
0.141176 0.036275 0.043137
0.188235 0.036275 0.043137
0.000000 0.072549 0.043137
0.047059 0.072549 0.043137
0.094118 0.072549 0.043137
0.141176 0.072549 0.043137
0.188235 0.072549 0.043137
0.000000 0.108824 0.043137
0.047059 0.108824 0.043137
0.094118 0.108824 0.043137
0.141176 0.108824 0.043137
0.188235 0.108824 0.043137
0.000000 0.145098 0.043137
0.047059 0.145098 0.043137
0.094118 0.145098 0.043137
0.141176 0.145098 0.043137
0.188235 0.145098 0.043137
0.000000 0.000000 0.064706
0.047059 0.000000 0.064706
0.094118 0.000000 0.064706
0.141176 0.000000 0.064706
0.188235 0.000000 0.064706
0.000000 0.036275 0.064706
0.047059 0.036275 0.064706
0.094118 0.036275 0.064706
0.141176 0.036275 0.064706
0.188235 0.036275 0.064706
0.000000 0.072549 0.064706
0.047059 0.072549 0.064706
0.094118 0.072549 0.064706
0.141176 0.072549 0.064706
0.188235 0.072549 0.064706
0.000000 0.108824 0.064706
0.047059 0.108824 0.064706
0.094118 0.108824 0.064706
0.141176 0.108824 0.064706
0.188235 0.108824 0.064706
0.000000 0.145098 0.064706
0.047059 0.145098 0.064706
0.094118 0.145098 0.064706
0.141176 0.145098 0.064706
0.188235 0.145098 0.064706
0.000000 0.000000 0.086275
0.047059 0.000000 0.086275
0.094118 0.000000 0.086275
0.141176 0.000000 0.086275
0.188235 0.000000 0.086275
0.000000 0.036275 0.086275
0.047059 0.036275 0.086275
0.094118 0.036275 0.086275
0.141176 0.036275 0.086275
0.188235 0.036275 0.086275
0.000000 0.072549 0.086275
0.047059 0.072549 0.086275
0.094118 0.072549 0.086275
0.141176 0.072549 0.086275
0.188235 0.072549 0.086275
0.000000 0.108824 0.086275
0.047059 0.108824 0.086275
0.094118 0.108824 0.086275
0.141176 0.108824 0.086275
0.188235 0.108824 0.086275
0.000000 0.145098 0.086275
0.047059 0.145098 0.086275
0.094118 0.145098 0.086275
0.141176 0.145098 0.086275
0.188235 0.145098 0.086275
