backend/lut_exports/2d0c6af355814468a8dcbb510b02824a.cube
TITLE "PresetForge Generated LUT"
LUT_3D_SIZE 33
DOMAIN_MIN 0.0 0.0 0.0
DOMAIN_MAX 1.0 1.0 1.0
0.000000 0.000000 0.000000
0.005882 0.000000 0.000000
0.011765 0.000000 0.000000
0.017647 0.000000 0.000000
0.023529 0.000000 0.000000
0.029412 0.000000 0.000000
0.035294 0.000000 0.000000
0.041176 0.000000 0.000000
0.047059 0.000000 0.000000
0.052941 0.000000 0.000000
0.058824 0.000000 0.000000
0.064706 0.000000 0.000000
0.070588 0.000000 0.000000
0.076471 0.000000 0.000000
0.082353 0.000000 0.000000
0.088235 0.000000 0.000000
0.094118 0.000000 0.000000
0.100000 0.000000 0.000000
0.105882 0.000000 0.000000
0.111765 0.000000 0.000000
0.117647 0.000000 0.000000
0.123529 0.000000 0.000000
0.129412 0.000000 0.000000
0.135294 0.000000 0.000000
0.141176 0.000000 0.000000
0.147059 0.000000 0.000000
0.152941 0.000000 0.000000
0.158824 0.000000 0.000000
0.164706 0.000000 0.000000
0.170588 0.000000 0.000000
0.176471 0.000000 0.000000
0.182353 0.000000 0.000000
0.188235 0.000000 0.000000
0.000000 0.004534 0.000000
0.005882 0.004534 0.000000
0.011765 0.004534 0.000000
0.017647 0.004534 0.000000
0.023529 0.004534 0.000000
0.029412 0.004534 0.000000
0.035294 0.004534 0.000000
0.041176 0.004534 0.000000
0.047059 0.004534 0.000000
0.052941 0.004534 0.000000
0.058824 0.004534 0.000000
0.064706 0.004534 0.000000
0.070588 0.004534 0.000000
0.076471 0.004534 0.000000
0.082353 0.004534 0.000000
0.088235 0.004534 0.000000
0.094118 0.004534 0.000000
0.100000 0.004534 0.000000
0.105882 0.004534 0.000000
0.111765 0.004534 0.000000
0.117647 0.004534 0.000000
0.123529 0.004534 0.000000
0.129412 0.004534 0.000000
0.135294 0.004534 0.000000
0.141176 0.004534 0.000000
0.147059 0.004534 0.000000
0.152941 0.004534 0.000000
0.158824 0.004534 0.000000
0.164706 0.004534 0.000000
0.170588 0.004534 0.000000
0.176471 0.004534 0.000000
0.182353 0.004534 0.000000
0.188235 0.004534 0.000000
0.000000 0.009069 0.000000
0.005882 0.009069 0.000000
0.011765 0.009069 0.000000
0.017647 0.009069 0.000000
0.023529 0.009069 0.000000
0.029412 0.009069 0.000000
0.035294 0.009069 0.000000
0.041176 0.009069 0.000000
0.047059 0.009069 0.000000
0.052941 0.009069 0.000000
0.058824 0.009069 0.000000
0.064706 0.009069 0.000000
0.070588 0.009069 0.000000
0.076471 0.009069 0.000000
0.082353 0.009069 0.000000
0.088235 0.009069 0.000000
0.094118 0.009069 0.000000
0.100000 0.009069 0.000000
0.105882 0.009069 0.000000
0.111765 0.009069 0.000000
0.117647 0.009069 0.000000
0.123529 0.009069 0.000000
0.129412 0.009069 0.000000
0.135294 0.009069 0.000000
0.141176 0.009069 0.000000
0.147059 0.009069 0.000000
0.152941 0.009069 0.000000
0.158824 0.009069 0.000000
0.164706 0.009069 0.000000
0.170588 0.009069 0.000000
0.176471 0.009069 0.000000
0.182353 0.009069 0.000000
0.188235 0.009069 0.000000
0.000000 0.013603 0.000000
0.005882 0.013603 0.000000
0.011765 0.013603 0.000000
0.017647 0.013603 0.000000
0.023529 0.013603 0.000000
0.029412 0.013603 0.000000
0.035294 0.013603 0.000000
0.041176 0.013603 0.000000
0.047059 0.013603 0.000000
0.052941 0.013603 0.000000
0.058824 0.013603 0.000000
0.064706 0.013603 0.000000
0.070588 0.013603 0.000000
0.076471 0.013603 0.000000
0.082353 0.013603 0.000000
0.088235 0.013603 0.000000
0.094118 0.013603 0.000000
0.100000 0.013603 0.000000
0.105882 0.013603 0.000000
0.111765 0.013603 0.000000
0.117647 0.013603 0.000000
0.123529 0.013603 0.000000
0.129412 0.013603 0.000000
0.135294 0.013603 0.000000
0.141176 0.013603 0.000000
0.147059 0.013603 0.000000
0.152941 0.013603 0.000000
0.158824 0.013603 0.000000
0.164706 0.013603 0.000000
0.170588 0.013603 0.000000
0.176471 0.013603 0.000000
0.182353 0.013603 0.000000
0.188235 0.013603 0.000000
0.000000 0.018137 0.000000
0.005882 0.018137 0.000000
0.011765 0.018137 0.000000
0.017647 0.018137 0.000000
0.023529 0.018137 0.000000
0.029412 0.018137 0.000000
0.035294 0.018137 0.000000
0.041176 0.018137 0.000000
0.047059 0.018137 0.000000
0.052941 0.018137 0.000000
0.058824 0.018137 0.000000
0.064706 0.018137 0.000000
0.070588 0.018137 0.000000
0.076471 0.018137 0.000000
0.082353 0.018137 0.000000
0.088235 0.018137 0.000000
0.094118 0.018137 0.000000
0.100000 0.018137 0.000000
0.105882 0.018137 0.000000
0.111765 0.018137 0.000000
0.117647 0.018137 0.000000
0.123529 0.018137 0.000000
0.129412 0.018137 0.000000
0.135294 0.018137 0.000000
0.141176 0.018137 0.000000
0.147059 0.018137 0.000000
0.152941 0.018137 0.000000
0.158824 0.018137 0.000000
0.164706 0.018137 0.000000
0.170588 0.018137 0.000000
0.176471 0.018137 0.000000
0.182353 0.018137 0.000000
0.188235 0.018137 0.000000
0.000000 0.022672 0.000000
0.005882 0.022672 0.000000
0.011765 0.022672 0.000000
0.017647 0.022672 0.000000
0.023529 0.022672 0.000000
0.029412 0.022672 0.000000
0.035294 0.022672 0.000000
0.041176 0.022672 0.000000
0.047059 0.022672 0.000000
0.052941 0.022672 0.000000
0.058824 0.022672 0.000000
0.064706 0.022672 0.000000
0.070588 0.022672 0.000000
0.076471 0.022672 0.000000
0.082353 0.022672 0.000000
0.088235 0.022672 0.000000
0.094118 0.022672 0.000000
0.100000 0.022672 0.000000
0.105882 0.022672 0.000000
0.111765 0.022672 0.000000
0.117647 0.022672 0.000000
0.123529 0.022672 0.000000
0.129412 0.022672 0.000000
0.135294 0.022672 0.000000
0.141176 0.022672 0.000000
0.147059 0.022672 0.000000
0.152941 0.022672 0.000000
0.158824 0.022672 0.000000
0.164706 0.022672 0.000000
0.170588 0.022672 0.000000
0.176471 0.022672 0.000000
0.182353 0.022672 0.000000
0.188235 0.022672 0.000000
0.000000 0.027206 0.000000
0.005882 0.027206 0.000000
0.011765 0.027206 0.000000
0.017647 0.027206 0.000000
0.023529 0.027206 0.000000
0.029412 0.027206 0.000000
0.035294 0.027206 0.000000
0.041176 0.027206 0.000000
0.047059 0.027206 0.000000
0.052941 0.027206 0.000000
0.058824 0.027206 0.000000
0.064706 0.027206 0.000000
0.070588 0.027206 0.000000
0.076471 0.027206 0.000000
0.082353 0.027206 0.000000
0.088235 0.027206 0.000000
0.094118 0.027206 0.000000
0.100000 0.027206 0.000000
0.105882 0.027206 0.000000
0.111765 0.027206 0.000000
0.117647 0.027206 0.000000
0.123529 0.027206 0.000000
0.129412 0.027206 0.000000
0.135294 0.027206 0.000000
0.141176 0.027206 0.000000
0.147059 0.027206 0.000000
0.152941 0.027206 0.000000
0.158824 0.027206 0.000000
0.164706 0.027206 0.000000
0.170588 0.027206 0.000000
0.176471 0.027206 0.000000
0.182353 0.027206 0.000000
0.188235 0.027206 0.000000
0.000000 0.031740 0.000000
0.005882 0.031740 0.000000
0.011765 0.031740 0.000000
0.017647 0.031740 0.000000
0.023529 0.031740 0.000000
0.029412 0.031740 0.000000
0.035294 0.031740 0.000000
0.041176 0.031740 0.000000
0.047059 0.031740 0.000000
0.052941 0.031740 0.000000
0.058824 0.031740 0.000000
0.064706 0.031740 0.000000
0.070588 0.031740 0.000000
0.076471 0.031740 0.000000
0.082353 0.031740 0.000000
0.088235 0.031740 0.000000
0.094118 0.031740 0.000000
0.100000 0.031740 0.000000
0.105882 0.031740 0.000000
0.111765 0.031740 0.000000
0.117647 0.031740 0.000000
0.123529 0.031740 0.000000
0.129412 0.031740 0.000000
0.135294 0.031740 0.000000
0.141176 0.031740 0.000000
0.147059 0.031740 0.000000
0.152941 0.031740 0.000000
0.158824 0.031740 0.000000
0.164706 0.031740 0.000000
0.170588 0.031740 0.000000
0.176471 0.031740 0.000000
0.182353 0.031740 0.000000
0.188235 0.031740 0.000000
0.000000 0.036275 0.000000
0.005882 0.036275 0.000000
0.011765 0.036275 0.000000
0.017647 0.036275 0.000000
0.023529 0.036275 0.000000
0.029412 0.036275 0.000000
0.035294 0.036275 0.000000
0.041176 0.036275 0.000000
0.047059 0.036275 0.000000
0.052941 0.036275 0.000000
0.058824 0.036275 0.000000
0.064706 0.036275 0.000000
0.070588 0.036275 0.000000
0.076471 0.036275 0.000000
0.082353 0.036275 0.000000
0.088235 0.036275 0.000000
0.094118 0.036275 0.000000
0.100000 0.036275 0.000000
0.105882 0.036275 0.000000
0.111765 0.036275 0.000000
0.117647 0.036275 0.000000
0.123529 0.036275 0.000000
0.129412 0.036275 0.000000
0.135294 0.036275 0.000000
0.141176 0.036275 0.000000
0.147059 0.036275 0.000000
0.152941 0.036275 0.000000
0.158824 0.036275 0.000000
0.164706 0.036275 0.000000
0.170588 0.036275 0.000000
0.176471 0.036275 0.000000
0.182353 0.036275 0.000000
0.188235 0.036275 0.000000
0.000000 0.040809 0.000000
0.005882 0.040809 0.000000
0.011765 0.040809 0.000000
0.017647 0.040809 0.000000
0.023529 0.040809 0.000000
0.029412 0.040809 0.000000
0.035294 0.040809 0.000000
0.041176 0.040809 0.000000
0.047059 0.040809 0.000000
0.052941 0.040809 0.000000
0.058824 0.040809 0.000000
0.064706 0.040809 0.000000
0.070588 0.040809 0.000000
0.076471 0.040809 0.000000
0.082353 0.040809 0.000000
0.088235 0.040809 0.000000
0.094118 0.040809 0.000000
0.100000 0.040809 0.000000
0.105882 0.040809 0.000000
0.111765 0.040809 0.000000
0.117647 0.040809 0.000000
0.123529 0.040809 0.000000
0.129412 0.040809 0.000000
0.135294 0.040809 0.000000
0.141176 0.040809 0.000000
0.147059 0.040809 0.000000
0.152941 0.040809 0.000000
0.158824 0.040809 0.000000
0.164706 0.040809 0.000000
0.170588 0.040809 0.000000
0.176471 0.040809 0.000000
0.182353 0.040809 0.000000
0.188235 0.040809 0.000000
0.000000 0.045343 0.000000
0.005882 0.045343 0.000000
0.011765 0.045343 0.000000
0.017647 0.045343 0.000000
0.023529 0.045343 0.000000
0.029412 0.045343 0.000000
0.035294 0.045343 0.000000
0.041176 0.045343 0.000000
0.047059 0.045343 0.000000
0.052941 0.045343 0.000000
0.058824 0.045343 0.000000
0.064706 0.045343 0.000000
0.070588 0.045343 0.000000
0.076471 0.045343 0.000000
0.082353 0.045343 0.000000
0.088235 0.045343 0.000000
0.094118 0.045343 0.000000
0.100000 0.045343 0.000000
0.105882 0.045343 0.000000
0.111765 0.045343 0.000000
0.117647 0.045343 0.000000
0.123529 0.045343 0.000000
0.129412 0.045343 0.000000
0.135294 0.045343 0.000000
0.141176 0.045343 0.000000
0.147059 0.045343 0.000000
0.152941 0.045343 0.000000
0.158824 0.045343 0.000000
0.164706 0.045343 0.000000
0.170588 0.045343 0.000000
0.176471 0.045343 0.000000
0.182353 0.045343 0.000000
0.188235 0.045343 0.000000
0.000000 0.049877 0.000000
0.005882 0.049877 0.000000
0.011765 0.049877 0.000000
0.017647 0.049877 0.000000
0.023529 0.049877 0.000000
0.029412 0.049877 0.000000
0.035294 0.049877 0.000000
0.041176 0.049877 0.000000
0.047059 0.049877 0.000000
0.052941 0.049877 0.000000
0.058824 0.049877 0.000000
0.064706 0.049877 0.000000
0.070588 0.049877 0.000000
0.076471 0.049877 0.000000
0.082353 0.049877 0.000000
0.088235 0.049877 0.000000
0.094118 0.049877 0.000000
0.100000 0.049877 0.000000
0.105882 0.049877 0.000000
0.111765 0.049877 0.000000
0.117647 0.049877 0.000000
0.123529 0.049877 0.000000
0.129412 0.049877 0.000000
0.135294 0.049877 0.000000
0.141176 0.049877 0.000000
0.147059 0.049877 0.000000
0.152941 0.049877 0.000000
0.158824 0.049877 0.000000
0.164706 0.049877 0.000000
0.170588 0.049877 0.000000
0.176471 0.049877 0.000000
0.182353 0.049877 0.000000
0.188235 0.049877 0.000000
0.000000 0.054412 0.000000
0.005882 0.054412 0.000000
0.011765 0.054412 0.000000
0.017647 0.054412 0.000000
0.023529 0.054412 0.000000
0.029412 0.054412 0.000000
0.035294 0.054412 0.000000
0.041176 0.054412 0.000000
0.047059 0.054412 0.000000
0.052941 0.054412 0.000000
0.058824 0.054412 0.000000
0.064706 0.054412 0.000000
0.070588 0.054412 0.000000
0.076471 0.054412 0.000000
0.082353 0.054412 0.000000
0.088235 0.054412 0.000000
0.094118 0.054412 0.000000
0.100000 0.054412 0.000000
0.105882 0.054412 0.000000
0.111765 0.054412 0.000000
0.117647 0.054412 0.000000
0.123529 0.054412 0.000000
0.129412 0.054412 0.000000
0.135294 0.054412 0.000000
0.141176 0.054412 0.000000
0.147059 0.054412 0.000000
0.152941 0.054412 0.000000
0.158824 0.054412 0.000000
0.164706 0.054412 0.000000
0.170588 0.054412 0.000000
0.176471 0.054412 0.000000
0.182353 0.054412 0.000000
0.188235 0.054412 0.000000
0.000000 0.058946 0.000000
0.005882 0.058946 0.000000
0.011765 0.058946 0.000000
0.017647 0.058946 0.000000
0.023529 0.058946 0.000000
0.029412 0.058946 0.000000
0.035294 0.058946 0.000000
0.041176 0.058946 0.000000
0.047059 0.058946 0.000000
0.052941 0.058946 0.000000
0.058824 0.058946 0.000000
0.064706 0.058946 0.000000
0.070588 0.058946 0.000000
0.076471 0.058946 0.000000
0.082353 0.058946 0.000000
0.088235 0.058946 0.000000
0.094118 0.058946 0.000000
0.100000 0.058946 0.000000
0.105882 0.058946 0.000000
0.111765 0.058946 0.000000
0.117647 0.058946 0.000000
0.123529 0.058946 0.000000
0.129412 0.058946 0.000000
0.135294 0.058946 0.000000
0.141176 0.058946 0.000000
0.147059 0.058946 0.000000
0.152941 0.058946 0.000000
0.158824 0.058946 0.000000
0.164706 0.058946 0.000000
0.170588 0.058946 0.000000
0.176471 0.058946 0.000000
0.182353 0.058946 0.000000
0.188235 0.058946 0.000000
0.000000 0.063480 0.000000
0.005882 0.063480 0.000000
0.011765 0.063480 0.000000
0.017647 0.063480 0.000000
0.023529 0.063480 0.000000
0.029412 0.063480 0.000000
0.035294 0.063480 0.000000
0.041176 0.063480 0.000000
0.047059 0.063480 0.000000
0.052941 0.063480 0.000000
0.058824 0.063480 0.000000
0.064706 0.063480 0.000000
0.070588 0.063480 0.000000
0.076471 0.063480 0.000000
0.082353 0.063480 0.000000
0.088235 0.063480 0.000000
0.094118 0.063480 0.000000
0.100000 0.063480 0.000000
0.105882 0.063480 0.000000
0.111765 0.063480 0.000000
0.117647 0.063480 0.000000
0.123529 0.063480 0.000000
0.129412 0.063480 0.000000
0.135294 0.063480 0.000000
0.141176 0.063480 0.000000
0.147059 0.063480 0.000000
0.152941 0.063480 0.000000
0.158824 0.063480 0.000000
0.164706 0.063480 0.000000
0.170588 0.063480 0.000000
0.176471 0.063480 0.000000
0.182353 0.063480 0.000000
0.188235 0.063480 0.000000
0.000000 0.068015 0.000000
0.005882 0.068015 0.000000
0.011765 0.068015 0.000000
0.017647 0.068015 0.000000
0.023529 0.068015 0.000000
0.029412 0.068015 0.000000
0.035294 0.068015 0.000000
0.041176 0.068015 0.000000
0.047059 0.068015 0.000000
0.052941 0.068015 0.000000
0.058824 0.068015 0.000000
0.064706 0.068015 0.000000
0.070588 0.068015 0.000000
0.076471 0.068015 0.000000
0.082353 0.068015 0.000000
0.088235 0.068015 0.000000
0.094118 0.068015 0.000000
0.100000 0.068015 0.000000
0.105882 0.068015 0.000000
0.111765 0.068015 0.000000
0.117647 0.068015 0.000000
0.123529 0.068015 0.000000
0.129412 0.068015 0.000000
0.135294 0.068015 0.000000
0.141176 0.068015 0.000000
0.147059 0.068015 0.000000
0.152941 0.068015 0.000000
0.158824 0.068015 0.000000
0.164706 0.068015 0.000000
0.170588 0.068015 0.000000
0.176471 0.068015 0.000000
0.182353 0.068015 0.000000
0.188235 0.068015 0.000000
0.000000 0.072549 0.000000
0.005882 0.072549 0.000000
0.011765 0.072549 0.000000
0.017647 0.072549 0.000000
0.023529 0.072549 0.000000
0.029412 0.072549 0.000000
0.035294 0.072549 0.000000
0.041176 0.072549 0.000000
0.047059 0.072549 0.000000
0.052941 0.072549 0.000000
0.058824 0.072549 0.000000
0.064706 0.072549 0.000000
0.070588 0.072549 0.000000
0.076471 0.072549 0.000000
0.082353 0.072549 0.000000
0.088235 0.072549 0.000000
0.094118 0.072549 0.000000
0.100000 0.072549 0.000000
0.105882 0.072549 0.000000
0.111765 0.072549 0.000000
0.117647 0.072549 0.000000
0.123529 0.072549 0.000000
0.129412 0.072549 0.000000
0.135294 0.072549 0.000000
0.141176 0.072549 0.000000
0.147059 0.072549 0.000000
0.152941 0.072549 0.000000
0.158824 0.072549 0.000000
0.164706 0.072549 0.000000
0.170588 0.072549 0.000000
0.176471 0.072549 0.000000
0.182353 0.072549 0.000000
0.188235 0.072549 0.000000
0.000000 0.077083 0.000000
0.005882 0.077083 0.000000
0.011765 0.077083 0.000000
0.017647 0.077083 0.000000
0.023529 0.077083 0.000000
0.029412 0.077083 0.000000
0.035294 0.077083 0.000000
0.041176 0.077083 0.000000
0.047059 0.077083 0.000000
0.052941 0.077083 0.000000
0.058824 0.077083 0.000000
0.064706 0.077083 0.000000
0.070588 0.077083 0.000000
0.076471 0.077083 0.000000
0.082353 0.077083 0.000000
0.088235 0.077083 0.000000
0.094118 0.077083 0.000000
0.100000 0.077083 0.000000
0.105882 0.077083 0.000000
0.111765 0.077083 0.000000
0.117647 0.077083 0.000000
0.123529 0.077083 0.000000
0.129412 0.077083 0.000000
0.135294 0.077083 0.000000
0.141176 0.077083 0.000000
0.147059 0.077083 0.000000
0.152941 0.077083 0.000000
0.158824 0.077083 0.000000
0.164706 0.077083 0.000000
0.170588 0.077083 0.000000
0.176471 0.077083 0.000000
0.182353 0.077083 0.000000
0.188235 0.077083 0.000000
0.000000 0.081618 0.000000
0.005882 0.081618 0.000000
0.011765 0.081618 0.000000
0.017647 0.081618 0.000000
0.023529 0.081618 0.000000
0.029412 0.081618 0.000000
0.035294 0.081618 0.000000
0.041176 0.081618 0.000000
0.047059 0.081618 0.000000
0.052941 0.081618 0.000000
0.058824 0.081618 0.000000
0.064706 0.081618 0.000000
0.070588 0.081618 0.000000
0.076471 0.081618 0.000000
0.082353 0.081618 0.000000
0.088235 0.081618 0.000000
0.094118 0.081618 0.000000
0.100000 0.081618 0.000000
0.105882 0.081618 0.000000
0.111765 0.081618 0.000000
0.117647 0.081618 0.000000
0.123529 0.081618 0.000000
0.129412 0.081618 0.000000
0.135294 0.081618 0.000000
0.141176 0.081618 0.000000
0.147059 0.081618 0.000000
0.152941 0.081618 0.000000
0.158824 0.081618 0.000000
0.164706 0.081618 0.000000
0.170588 0.081618 0.000000
0.176471 0.081618 0.000000
0.182353 0.081618 0.000000
0.188235 0.081618 0.000000
0.000000 0.086152 0.000000
0.005882 0.086152 0.000000
0.011765 0.086152 0.000000
0.017647 0.086152 0.000000
0.023529 0.086152 0.000000
0.029412 0.086152 0.000000
0.035294 0.086152 0.000000
0.041176 0.086152 0.000000
0.047059 0.086152 0.000000
0.052941 0.086152 0.000000
0.058824 0.086152 0.000000
0.064706 0.086152 0.000000
0.070588 0.086152 0.000000
0.076471 0.086152 0.000000
0.082353 0.086152 0.000000
0.088235 0.086152 0.000000
0.094118 0.086152 0.000000
0.100000 0.086152 0.000000
0.105882 0.086152 0.000000
0.111765 0.086152 0.000000
0.117647 0.086152 0.000000
0.123529 0.086152 0.000000
0.129412 0.086152 0.000000
0.135294 0.086152 0.000000
0.141176 0.086152 0.000000
0.147059 0.086152 0.000000
0.152941 0.086152 0.000000
0.158824 0.086152 0.000000
0.164706 0.086152 0.000000
0.170588 0.086152 0.000000
0.176471 0.086152 0.000000
0.182353 0.086152 0.000000
0.188235 0.086152 0.000000
0.000000 0.090686 0.000000
0.005882 0.090686 0.000000
0.011765 0.090686 0.000000
0.017647 0.090686 0.000000
0.023529 0.090686 0.000000
0.029412 0.090686 0.000000
0.035294 0.090686 0.000000
0.041176 0.090686 0.000000
0.047059 0.090686 0.000000
0.052941 0.090686 0.000000
0.058824 0.090686 0.000000
0.064706 0.090686 0.000000
0.070588 0.090686 0.000000
0.076471 0.090686 0.000000
0.082353 0.090686 0.000000
0.088235 0.090686 0.000000
0.094118 0.090686 0.000000
0.100000 0.090686 0.000000
0.105882 0.090686 0.000000
0.111765 0.090686 0.000000
0.117647 0.090686 0.000000
0.123529 0.090686 0.000000
0.129412 0.090686 0.000000
0.135294 0.090686 0.000000
0.141176 0.090686 0.000000
0.147059 0.090686 0.000000
0.152941 0.090686 0.000000
0.158824 0.090686 0.000000
0.164706 0.090686 0.000000
0.170588 0.090686 0.000000
0.176471 0.090686 0.000000
0.182353 0.090686 0.000000
0.188235 0.090686 0.000000
0.000000 0.095221 0.000000
0.005882 0.095221 0.000000
0.011765 0.095221 0.000000
0.017647 0.095221 0.000000
0.023529 0.095221 0.000000
0.029412 0.095221 0.000000
0.035294 0.095221 0.000000
0.041176 0.095221 0.000000
0.047059 0.095221 0.000000
0.052941 0.095221 0.000000
0.058824 0.095221 0.000000
0.064706 0.095221 0.000000
0.070588 0.095221 0.000000
0.076471 0.095221 0.000000
0.082353 0.095221 0.000000
0.088235 0.095221 0.000000
0.094118 0.095221 0.000000
0.100000 0.095221 0.000000
0.105882 0.095221 0.000000
0.111765 0.095221 0.000000
0.117647 0.095221 0.000000
0.123529 0.095221 0.000000
0.129412 0.095221 0.000000
0.135294 0.095221 0.000000
0.141176 0.095221 0.000000
0.147059 0.095221 0.000000
0.152941 0.095221 0.000000
0.158824 0.095221 0.000000
0.164706 0.095221 0.000000
0.170588 0.095221 0.000000
0.176471 0.095221 0.000000
0.182353 0.095221 0.000000
0.188235 0.095221 0.000000
0.000000 0.099755 0.000000
0.005882 0.099755 0.000000
0.011765 0.099755 0.000000
0.017647 0.099755 0.000000
0.023529 0.099755 0.000000
0.029412 0.099755 0.000000
0.035294 0.099755 0.000000
0.041176 0.099755 0.000000
0.047059 0.099755 0.000000
0.052941 0.099755 0.000000
0.058824 0.099755 0.000000
0.064706 0.099755 0.000000
0.070588 0.099755 0.000000
0.076471 0.099755 0.000000
0.082353 0.099755 0.000000
0.088235 0.099755 0.000000
0.094118 0.099755 0.000000
0.100000 0.099755 0.000000
0.105882 0.099755 0.000000
0.111765 0.099755 0.000000
0.117647 0.099755 0.000000
0.123529 0.099755 0.000000
0.129412 0.099755 0.000000
0.135294 0.099755 0.000000
0.141176 0.099755 0.000000
0.147059 0.099755 0.000000
0.152941 0.099755 0.000000
0.158824 0.099755 0.000000
0.164706 0.099755 0.000000
0.170588 0.099755 0.000000
0.176471 0.099755 0.000000
0.182353 0.099755 0.000000
0.188235 0.099755 0.000000
0.000000 0.104289 0.000000
0.005882 0.104289 0.000000
0.011765 0.104289 0.000000
0.017647 0.104289 0.000000
0.023529 0.104289 0.000000
0.029412 0.104289 0.000000
0.035294 0.104289 0.000000
0.041176 0.104289 0.000000
0.047059 0.104289 0.000000
0.052941 0.104289 0.000000
0.058824 0.104289 0.000000
0.064706 0.104289 0.000000
0.070588 0.104289 0.000000
0.076471 0.104289 0.000000
0.082353 0.104289 0.000000
0.088235 0.104289 0.000000
0.094118 0.104289 0.000000
0.100000 0.104289 0.000000
0.105882 0.104289 0.000000
0.111765 0.104289 0.000000
0.117647 0.104289 0.000000
0.123529 0.104289 0.000000
0.129412 0.104289 0.000000
0.135294 0.104289 0.000000
0.141176 0.104289 0.000000
0.147059 0.104289 0.000000
0.152941 0.104289 0.000000
0.158824 0.104289 0.000000
0.164706 0.104289 0.000000
0.170588 0.104289 0.000000
0.176471 0.104289 0.000000
0.182353 0.104289 0.000000
0.188235 0.104289 0.000000
0.000000 0.108824 0.000000
0.005882 0.108824 0.000000
0.011765 0.108824 0.000000
0.017647 0.108824 0.000000
0.023529 0.108824 0.000000
0.029412 0.108824 0.000000
0.035294 0.108824 0.000000
0.041176 0.108824 0.000000
0.047059 0.108824 0.000000
0.052941 0.108824 0.000000
0.058824 0.108824 0.000000
0.064706 0.108824 0.000000
0.070588 0.108824 0.000000
0.076471 0.108824 0.000000
0.082353 0.108824 0.000000
0.088235 0.108824 0.000000
0.094118 0.108824 0.000000
0.100000 0.108824 0.000000
0.105882 0.108824 0.000000
0.111765 0.108824 0.000000
0.117647 0.108824 0.000000
0.123529 0.108824 0.000000
0.129412 0.108824 0.000000
0.135294 0.108824 0.000000
0.141176 0.108824 0.000000
0.147059 0.108824 0.000000
0.152941 0.108824 0.000000
0.158824 0.108824 0.000000
0.164706 0.108824 0.000000
0.170588 0.108824 0.000000
0.176471 0.108824 0.000000
0.182353 0.108824 0.000000
0.188235 0.108824 0.000000
0.000000 0.113358 0.000000
0.005882 0.113358 0.000000
0.011765 0.113358 0.000000
0.017647 0.113358 0.000000
0.023529 0.113358 0.000000
0.029412 0.113358 0.000000
0.035294 0.113358 0.000000
0.041176 0.113358 0.000000
0.047059 0.113358 0.000000
0.052941 0.113358 0.000000
0.058824 0.113358 0.000000
0.064706 0.113358 0.000000
0.070588 0.113358 0.000000
0.076471 0.113358 0.000000
0.082353 0.113358 0.000000
0.088235 0.113358 0.000000
0.094118 0.113358 0.000000
0.100000 0.113358 0.000000
0.105882 0.113358 0.000000
0.111765 0.113358 0.000000
0.117647 0.113358 0.000000
0.123529 0.113358 0.000000
0.129412 0.113358 0.000000
0.135294 0.113358 0.000000
0.141176 0.113358 0.000000
0.147059 0.113358 0.000000
0.152941 0.113358 0.000000
0.158824 0.113358 0.000000
0.164706 0.113358 0.000000
0.170588 0.113358 0.000000
0.176471 0.113358 0.000000
0.182353 0.113358 0.000000
0.188235 0.113358 0.000000
0.000000 0.117892 0.000000
0.005882 0.117892 0.000000
0.011765 0.117892 0.000000
0.017647 0.117892 0.000000
0.023529 0.117892 0.000000
0.029412 0.117892 0.000000
0.035294 0.117892 0.000000
0.041176 0.117892 0.000000
0.047059 0.117892 0.000000
0.052941 0.117892 0.000000
0.058824 0.117892 0.000000
0.064706 0.117892 0.000000
0.070588 0.117892 0.000000
0.076471 0.117892 0.000000
0.082353 0.117892 0.000000
0.088235 0.117892 0.000000
0.094118 0.117892 0.000000
0.100000 0.117892 0.000000
0.105882 0.117892 0.000000
0.111765 0.117892 0.000000
0.117647 0.117892 0.000000
0.123529 0.117892 0.000000
0.129412 0.117892 0.000000
0.135294 0.117892 0.000000
0.141176 0.117892 0.000000
0.147059 0.117892 0.000000
0.152941 0.117892 0.000000
